; generated by Slic3r 1.2.5 on 2015-03-05 at 12:34:00

; external perimeters extrusion width = 0.50mm
; perimeters extrusion width = 0.85mm
; infill extrusion width = 0.87mm
; solid infill extrusion width = 0.85mm
; top infill extrusion width = 0.85mm

M107
G21 ; set units to millimeters
G90 ; use absolute coordinates
M83 ; use relative distances for extrusion
M140 S65; Set bed temperature
G28 ; Home all axes
G1 Z5 F200 ; lift nozzle
G1 X2 Y50 F2000; Go to wait for warm position
M116; Wait for all temperatures
G10 P1 S185 R0 ; Set extruder temperature
T1; Select extruder
M116; Wait for all temperatures
G21 ; set units to millimeters
G90 ; use absolute coordinates
M83 ; use relative distances for extrusion
G1 E-4.00000 F1800.00000
G1 Z0.240 F3600.000
G1 X79.202 Y82.106 F3600.000
G1 E4.00000 F1800.00000
G1 X80.964 Y80.591 E0.18513 F240.000
G1 X83.134 Y79.759 E0.18513
G1 X84.343 Y79.631 E0.09690
G1 X110.551 Y79.224 E2.08832
G1 X125.551 Y79.224 E1.19511
G1 X127.840 Y79.621 E0.18513
G1 X129.862 Y80.765 E0.18513 F240.000
G1 X131.380 Y82.524 E0.18513
G1 X131.947 Y83.718 E0.10530
G1 X133.474 Y87.957 E0.35893
G1 X133.822 Y89.408 E0.11895
G1 X133.916 Y90.148 E0.05938
G1 X133.969 Y91.000 E0.06802
G1 X133.969 Y109.000 E1.43414
G1 X133.916 Y109.852 E0.06802
G1 X133.822 Y110.592 E0.05938
G1 X133.474 Y112.043 E0.11895
G1 X131.947 Y116.282 E0.35893
G1 X130.798 Y118.301 E0.18513
G1 X129.036 Y119.815 E0.18513
G1 X126.866 Y120.648 E0.18513
G1 X125.551 Y120.776 E0.10530
G1 X84.551 Y120.776 E3.26664
G1 X82.261 Y120.379 E0.18513
G1 X80.240 Y119.235 E0.18513
G1 X78.721 Y117.476 E0.18513
G1 X78.155 Y116.282 E0.10530
G1 X76.628 Y112.043 E0.35893
G1 X76.279 Y110.592 E0.11895
G1 X76.186 Y109.852 E0.05940
G1 X76.132 Y109.039 E0.06489
G1 X76.031 Y91.446 E1.40175
G1 X76.084 Y90.555 E0.07115
G1 X76.178 Y89.815 E0.05938
G1 X76.526 Y88.364 E0.11895
G1 X78.053 Y84.125 E0.35893
G1 X79.165 Y82.171 E0.17915
G1 E-4.00000 F1800.00000
G1 X112.801 Y104.750 F3600.000
G1 E4.00000 F1800.00000
G1 X123.301 Y104.750 E0.83658 F240.000
G1 X123.301 Y113.250 E0.67723
G1 X112.801 Y113.250 E0.83658
G1 X112.801 Y104.825 E0.67126
G1 X112.801 Y104.250 F3600.000
G1 X112.177 Y104.896 F3600.000
G1 X112.177 Y113.104 E0.65402 F240.000
G1 X111.424 Y113.104 E0.06000
G1 X111.424 Y104.896 E0.65402
G1 X112.102 Y104.896 E0.05402
G1 X123.924 Y104.896 F3600.000
G1 X124.677 Y104.896 E0.06000 F240.000
G1 X124.677 Y113.104 E0.65402
G1 X123.924 Y113.104 E0.06000
G1 X123.924 Y104.971 E0.64805
G1 X125.301 Y108.439 F3600.000
G1 X126.848 Y108.439 E0.12327 F168.000
G1 X126.919 Y109.000 E0.04506
G1 X126.848 Y109.561 E0.04506
G1 X125.301 Y109.561 E0.12327
G1 X125.301 Y113.728 E0.33198
G1 X110.801 Y113.728 E1.15528
G1 X110.801 Y109.561 E0.33198
G1 X109.254 Y109.561 E0.12327
G1 X109.183 Y109.000 E0.04506
G1 X109.254 Y108.439 E0.04506
G1 X110.801 Y108.439 E0.12327
G1 X110.801 Y104.272 E0.33198
G1 X125.301 Y104.272 E1.15528
G1 X125.301 Y108.364 E0.32601
G1 X125.301 Y108.939 F3600.000
G1 E-4.00000 F1800.00000
G1 Z0.240 F3600.000
G1 X123.301 Y95.250 F3600.000
G1 E4.00000 F1800.00000
G1 X112.801 Y95.250 E0.83658 F240.000
G1 X112.801 Y86.750 E0.67723
G1 X123.301 Y86.750 E0.83658
G1 X123.301 Y95.175 E0.67126
G1 X123.301 Y95.750 F3600.000
G1 X112.177 Y95.104 F3600.000
G1 X111.424 Y95.104 E0.06000 F240.000
G1 X111.424 Y86.896 E0.65402
G1 X112.177 Y86.896 E0.06000
G1 X112.177 Y95.029 E0.64805
G1 X123.924 Y95.104 F3600.000
G1 X123.924 Y86.896 E0.65402 F240.000
G1 X124.677 Y86.896 E0.06000
G1 X124.677 Y95.104 E0.65402
G1 X123.999 Y95.104 E0.05402
G1 X125.301 Y91.561 F3600.000
G1 X125.301 Y95.728 E0.33198 F168.000
G1 X110.801 Y95.728 E1.15528
G1 X110.801 Y91.561 E0.33198
G1 X109.254 Y91.561 E0.12327
G1 X109.183 Y91.000 E0.04506
G1 X109.254 Y90.439 E0.04506
G1 X110.801 Y90.439 E0.12327
G1 X110.801 Y86.272 E0.33198
G1 X125.301 Y86.272 E1.15528
G1 X125.301 Y90.439 E0.33198
G1 X126.848 Y90.439 E0.12327
G1 X126.919 Y91.000 E0.04506
G1 X126.848 Y91.561 E0.04506
G1 X125.376 Y91.561 E0.11729
G1 X124.801 Y91.561 F3600.000
G1 E-4.00000 F1800.00000
G1 Z0.240 F3600.000
G1 X97.199 Y95.657 F3600.000
G1 E4.00000 F1800.00000
G1 X86.699 Y95.657 E0.83658 F240.000
G1 X86.699 Y87.157 E0.67723
G1 X97.199 Y87.157 E0.83658
G1 X97.199 Y95.582 E0.67126
G1 X97.199 Y96.157 F3600.000
G1 X86.076 Y95.511 F3600.000
G1 X85.323 Y95.511 E0.06000 F240.000
G1 X85.323 Y87.302 E0.65402
G1 X86.076 Y87.302 E0.06000
G1 X86.076 Y95.436 E0.64805
G1 X97.823 Y95.511 F3600.000
G1 X97.823 Y87.302 E0.65402 F240.000
G1 X98.576 Y87.302 E0.06000
G1 X98.576 Y95.511 E0.65402
G1 X97.898 Y95.511 E0.05402
G1 X99.199 Y91.968 F3600.000
G1 X99.199 Y96.135 E0.33198 F168.000
G1 X84.699 Y96.135 E1.15528
G1 X84.699 Y91.968 E0.33198
G1 X83.152 Y91.968 E0.12327
G1 X83.081 Y91.407 E0.04506
G1 X83.152 Y90.846 E0.04506
G1 X84.699 Y90.846 E0.12327
G1 X84.699 Y86.679 E0.33198
G1 X99.199 Y86.679 E1.15528
G1 X99.199 Y90.846 E0.33198
G1 X100.746 Y90.846 E0.12327
G1 X100.817 Y91.407 E0.04506
G1 X100.746 Y91.968 E0.04506
G1 X99.274 Y91.968 E0.11729
G1 X98.699 Y91.968 F3600.000
G1 E-4.00000 F1800.00000
G1 Z0.240 F3600.000
G1 X97.301 Y104.750 F3600.000
G1 E4.00000 F1800.00000
G1 X97.301 Y113.250 E0.67723 F240.000
G1 X86.801 Y113.250 E0.83658
G1 X86.801 Y104.750 E0.67723
G1 X97.226 Y104.750 E0.83060
G1 X97.801 Y104.750 F3600.000
G1 X86.177 Y104.896 F3600.000
G1 X86.177 Y113.104 E0.65402 F240.000
G1 X85.424 Y113.104 E0.06000
G1 X85.424 Y104.896 E0.65402
G1 X86.102 Y104.896 E0.05402
G1 X97.924 Y104.896 F3600.000
G1 X98.677 Y104.896 E0.06000 F240.000
G1 X98.677 Y113.104 E0.65402
G1 X97.924 Y113.104 E0.06000
G1 X97.924 Y104.971 E0.64805
G1 X99.301 Y108.439 F3600.000
G1 X100.848 Y108.439 E0.12327 F168.000
G1 X100.919 Y109.000 E0.04506
G1 X100.848 Y109.561 E0.04506
G1 X99.301 Y109.561 E0.12327
G1 X99.301 Y113.728 E0.33198
G1 X84.801 Y113.728 E1.15528
G1 X84.801 Y109.561 E0.33198
G1 X83.254 Y109.561 E0.12327
G1 X83.183 Y109.000 E0.04506
G1 X83.254 Y108.439 E0.04506
G1 X84.801 Y108.439 E0.12327
G1 X84.801 Y104.272 E0.33198
G1 X99.301 Y104.272 E1.15528
G1 X99.301 Y108.364 E0.32601
G1 X99.301 Y108.939 F3600.000
G1 E-4.00000 F1800.00000
G1 Z0.480 F3600.000
G1 X112.801 Y104.750 F3600.000
G1 E4.00000 F1800.00000
G1 X123.301 Y104.750 E0.46989 F1200.000
G1 X123.301 Y113.250 E0.38038
G1 X112.801 Y113.250 E0.46989
G1 X112.801 Y104.825 E0.37703
G1 X112.801 Y104.250 F3600.000
G1 X111.424 Y108.456 F3600.000
G1 X111.424 Y104.656 E0.30281 F1200.000
G1 X112.177 Y104.656 E0.06000
G1 X112.177 Y113.344 E0.69227
G1 X111.424 Y113.344 E0.06000
G1 X111.424 Y109.544 E0.30281
G1 X109.640 Y109.544 E0.14217
G1 X109.571 Y109.000 E0.04367
G1 X109.640 Y108.456 E0.04367
G1 X111.349 Y108.456 E0.13619
G1 E-4.00000 F1800.00000
G1 X124.677 Y108.456 F3600.000
G1 E4.00000 F1800.00000
G1 X126.462 Y108.456 E0.14217 F1200.000
G1 X126.530 Y109.000 E0.04367
G1 X126.462 Y109.544 E0.04367
G1 X124.677 Y109.544 E0.14217
G1 X124.677 Y113.344 E0.30281
G1 X123.924 Y113.344 E0.06000
G1 X123.924 Y104.656 E0.69227
G1 X124.677 Y104.656 E0.06000
G1 X124.677 Y108.381 E0.29683
G1 X125.301 Y107.833 F3600.000
G1 X125.801 Y107.833 E0.02238 F840.000
G1 X126.877 Y107.833 E0.08785 F1200.000
G1 X126.916 Y107.939 E0.00924
G1 X127.081 Y108.382 E0.02116 F840.000
G1 X127.159 Y109.000 E0.02787
G1 X127.081 Y109.618 E0.02787
G1 X126.916 Y110.061 E0.02116
G1 X126.877 Y110.167 E0.00924 F1200.000
G1 X125.801 Y110.167 E0.08785
G1 X125.301 Y110.167 E0.02238 F840.000
G1 X125.301 Y113.968 E0.17008
G1 X110.801 Y113.968 E0.64889
G1 X110.801 Y110.167 E0.17008
G1 X110.301 Y110.167 E0.02238
G1 X109.225 Y110.167 E0.08785 F1200.000
G1 X109.185 Y110.061 E0.00924
G1 X109.021 Y109.618 E0.02116 F840.000
G1 X108.943 Y109.000 E0.02787
G1 X109.021 Y108.382 E0.02787
G1 X109.185 Y107.939 E0.02116
G1 X109.225 Y107.833 E0.00924 F1200.000
G1 X110.301 Y107.833 E0.08785
G1 X110.801 Y107.833 E0.02238 F840.000
G1 X110.801 Y104.032 E0.17008
G1 X125.301 Y104.032 E0.64889
G1 X125.301 Y107.758 E0.16672
G1 X125.301 Y108.333 F3600.000
G1 E-4.00000 F1800.00000
G1 Z0.480 F3600.000
G1 X123.301 Y95.250 F3600.000
G1 E4.00000 F1800.00000
G1 X112.801 Y95.250 E0.46989 F1200.000
G1 X112.801 Y86.750 E0.38038
G1 X123.301 Y86.750 E0.46989
G1 X123.301 Y95.175 E0.37703
G1 X123.301 Y95.750 F3600.000
G1 E-4.00000 F1800.00000
G1 X111.424 Y91.544 F3600.000
G1 E4.00000 F1800.00000
G1 X109.640 Y91.544 E0.14217 F1200.000
G1 X109.571 Y91.000 E0.04367
G1 X109.640 Y90.456 E0.04367
G1 X111.424 Y90.456 E0.14217
G1 X111.424 Y86.656 E0.30281
G1 X112.177 Y86.656 E0.06000
G1 X112.177 Y95.344 E0.69227
G1 X111.424 Y95.344 E0.06000
G1 X111.424 Y91.619 E0.29683
G1 E-4.00000 F1800.00000
G1 X124.677 Y91.544 F3600.000
G1 E4.00000 F1800.00000
G1 X124.677 Y95.344 E0.30281 F1200.000
G1 X123.924 Y95.344 E0.06000
G1 X123.924 Y86.656 E0.69227
G1 X124.677 Y86.656 E0.06000
G1 X124.677 Y90.456 E0.30281
G1 X126.462 Y90.456 E0.14217
G1 X126.530 Y91.000 E0.04367
G1 X126.462 Y91.544 E0.04367
G1 X124.752 Y91.544 E0.13619
G1 X125.301 Y92.167 F3600.000
G1 X125.301 Y95.968 E0.17008 F840.000
G1 X110.801 Y95.968 E0.64889
G1 X110.801 Y92.167 E0.17008
G1 X110.301 Y92.167 E0.02238
G1 X109.225 Y92.167 E0.08785 F1200.000
G1 X109.185 Y92.061 E0.00924
G1 X109.021 Y91.618 E0.02116 F840.000
G1 X108.943 Y91.000 E0.02787
G1 X109.021 Y90.382 E0.02787
G1 X109.185 Y89.939 E0.02116
G1 X109.225 Y89.833 E0.00924 F1200.000
G1 X110.301 Y89.833 E0.08785
G1 X110.801 Y89.833 E0.02238 F840.000
G1 X110.801 Y86.032 E0.17008
G1 X125.301 Y86.032 E0.64889
G1 X125.301 Y89.833 E0.17008
G1 X125.801 Y89.833 E0.02238
G1 X126.877 Y89.833 E0.08785 F1200.000
G1 X126.916 Y89.939 E0.00924
G1 X127.081 Y90.382 E0.02116 F840.000
G1 X127.159 Y91.000 E0.02787
G1 X127.081 Y91.618 E0.02787
G1 X126.916 Y92.061 E0.02116
G1 X126.877 Y92.167 E0.00924 F1200.000
G1 X125.801 Y92.167 E0.08785
G1 X125.376 Y92.167 E0.01902 F840.000
G1 X124.801 Y92.167 F3600.000
G1 E-4.00000 F1800.00000
G1 Z0.480 F3600.000
G1 X97.199 Y95.657 F3600.000
G1 E4.00000 F1800.00000
G1 X86.699 Y95.657 E0.46989 F1200.000
G1 X86.699 Y87.157 E0.38038
G1 X97.199 Y87.157 E0.46989
G1 X97.199 Y95.582 E0.37703
G1 X97.199 Y96.157 F3600.000
G1 E-4.00000 F1800.00000
G1 X85.323 Y91.951 F3600.000
G1 E4.00000 F1800.00000
G1 X83.538 Y91.951 E0.14217 F1200.000
G1 X83.470 Y91.407 E0.04367
G1 X83.538 Y90.863 E0.04367
G1 X85.323 Y90.863 E0.14217
G1 X85.323 Y87.062 E0.30281
G1 X86.076 Y87.062 E0.06000
G1 X86.076 Y95.751 E0.69227
G1 X85.323 Y95.751 E0.06000
G1 X85.323 Y92.026 E0.29683
G1 E-4.00000 F1800.00000
G1 X98.576 Y91.951 F3600.000
G1 E4.00000 F1800.00000
G1 X98.576 Y95.751 E0.30281 F1200.000
G1 X97.823 Y95.751 E0.06000
G1 X97.823 Y87.062 E0.69227
G1 X98.576 Y87.062 E0.06000
G1 X98.576 Y90.863 E0.30281
G1 X100.360 Y90.863 E0.14217
G1 X100.429 Y91.407 E0.04367
G1 X100.360 Y91.951 E0.04367
G1 X98.651 Y91.951 E0.13619
G1 X99.199 Y92.574 F3600.000
G1 X99.199 Y96.375 E0.17008 F840.000
G1 X84.699 Y96.375 E0.64889
G1 X84.699 Y92.574 E0.17008
G1 X84.199 Y92.574 E0.02238
G1 X83.123 Y92.574 E0.08785 F1200.000
G1 X83.084 Y92.468 E0.00924
G1 X82.919 Y92.025 E0.02116 F840.000
G1 X82.841 Y91.407 E0.02787
G1 X82.919 Y90.789 E0.02787
G1 X83.084 Y90.346 E0.02116
G1 X83.123 Y90.240 E0.00924 F1200.000
G1 X84.199 Y90.240 E0.08785
G1 X84.699 Y90.240 E0.02238 F840.000
G1 X84.699 Y86.439 E0.17008
G1 X99.199 Y86.439 E0.64889
G1 X99.199 Y90.240 E0.17008
G1 X99.699 Y90.240 E0.02238
G1 X100.775 Y90.240 E0.08785 F1200.000
G1 X100.815 Y90.346 E0.00924
G1 X100.979 Y90.789 E0.02116 F840.000
G1 X101.057 Y91.407 E0.02787
G1 X100.979 Y92.025 E0.02787
G1 X100.815 Y92.468 E0.02116
G1 X100.775 Y92.574 E0.00924 F1200.000
G1 X99.699 Y92.574 E0.08785
G1 X99.274 Y92.574 E0.01902 F840.000
G1 X98.699 Y92.574 F3600.000
G1 E-4.00000 F1800.00000
G1 Z0.480 F3600.000
G1 X97.301 Y104.750 F3600.000
G1 E4.00000 F1800.00000
G1 X97.301 Y113.250 E0.38038 F1200.000
G1 X86.801 Y113.250 E0.46989
G1 X86.801 Y104.750 E0.38038
G1 X97.226 Y104.750 E0.46653
G1 X97.801 Y104.750 F3600.000
G1 E-4.00000 F1800.00000
G1 X85.424 Y108.456 F3600.000
G1 E4.00000 F1800.00000
G1 X85.424 Y104.656 E0.30281 F1200.000
G1 X86.177 Y104.656 E0.06000
G1 X86.177 Y113.344 E0.69227
G1 X85.424 Y113.344 E0.06000
G1 X85.424 Y109.544 E0.30281
G1 X83.640 Y109.544 E0.14217
G1 X83.571 Y109.000 E0.04367
G1 X83.640 Y108.456 E0.04367
G1 X85.349 Y108.456 E0.13619
G1 E-4.00000 F1800.00000
G1 X98.677 Y108.456 F3600.000
G1 E4.00000 F1800.00000
G1 X100.462 Y108.456 E0.14217 F1200.000
G1 X100.530 Y109.000 E0.04367
G1 X100.462 Y109.544 E0.04367
G1 X98.677 Y109.544 E0.14217
G1 X98.677 Y113.344 E0.30281
G1 X97.924 Y113.344 E0.06000
G1 X97.924 Y104.656 E0.69227
G1 X98.677 Y104.656 E0.06000
G1 X98.677 Y108.381 E0.29683
G1 X99.301 Y107.833 F3600.000
G1 X99.801 Y107.833 E0.02238 F840.000
G1 X100.877 Y107.833 E0.08785 F1200.000
G1 X100.916 Y107.939 E0.00924
G1 X101.081 Y108.382 E0.02116 F840.000
G1 X101.159 Y109.000 E0.02787
G1 X101.081 Y109.618 E0.02787
G1 X100.916 Y110.061 E0.02116
G1 X100.877 Y110.167 E0.00924 F1200.000
G1 X99.801 Y110.167 E0.08785
G1 X99.301 Y110.167 E0.02238 F840.000
G1 X99.301 Y113.968 E0.17008
G1 X84.801 Y113.968 E0.64889
G1 X84.801 Y110.167 E0.17008
G1 X84.301 Y110.167 E0.02238
G1 X83.225 Y110.167 E0.08785 F1200.000
G1 X83.185 Y110.061 E0.00924
G1 X83.021 Y109.618 E0.02116 F840.000
G1 X82.943 Y109.000 E0.02787
G1 X83.021 Y108.382 E0.02787
G1 X83.185 Y107.939 E0.02116
G1 X83.225 Y107.833 E0.00924 F1200.000
G1 X84.301 Y107.833 E0.08785
G1 X84.801 Y107.833 E0.02238 F840.000
G1 X84.801 Y104.032 E0.17008
G1 X99.301 Y104.032 E0.64889
G1 X99.301 Y107.758 E0.16672
G1 X99.301 Y108.333 F3600.000
G1 E-4.00000 F1800.00000
G1 Z0.720 F3600.000
G1 X112.801 Y104.750 F3600.000
G1 E4.00000 F1800.00000
G1 X123.301 Y104.750 E0.46989 F1200.000
G1 X123.301 Y113.250 E0.38038
G1 X112.801 Y113.250 E0.46989
G1 X112.801 Y104.825 E0.37703
G1 X112.801 Y104.250 F3600.000
G1 X111.424 Y108.113 F3600.000
G1 X111.424 Y104.416 E0.29460 F1200.000
G1 X112.177 Y104.416 E0.06000
G1 X112.177 Y113.584 E0.73051
G1 X111.424 Y113.584 E0.06000
G1 X111.424 Y109.887 E0.29460
G1 X109.561 Y109.887 E0.14848
G1 X109.383 Y109.407 E0.04080
G1 X109.313 Y108.858 E0.04406
G1 X109.349 Y108.858 E0.00286
G1 X109.383 Y108.593 E0.02127
G1 X109.561 Y108.113 E0.04080
G1 X111.349 Y108.113 E0.14250
G1 E-4.00000 F1800.00000
G1 X124.677 Y108.113 F3600.000
G1 E4.00000 F1800.00000
G1 X126.541 Y108.113 E0.14848 F1200.000
G1 X126.719 Y108.593 E0.04080
G1 X126.770 Y109.000 E0.03267
G1 X126.719 Y109.407 E0.03267
G1 X126.541 Y109.887 E0.04080
G1 X124.677 Y109.887 E0.14848
G1 X124.677 Y113.584 E0.29460
G1 X123.924 Y113.584 E0.06000
G1 X123.924 Y104.416 E0.73051
G1 X124.677 Y104.416 E0.06000
G1 X124.677 Y108.038 E0.28862
G1 X125.301 Y107.490 F3600.000
G1 X126.908 Y107.490 E0.07194 F840.000
G1 X127.086 Y107.789 E0.01555
G1 X127.329 Y108.444 E0.03127
G1 X127.399 Y109.000 E0.02509
G1 X127.329 Y109.556 E0.02509
G1 X127.086 Y110.211 E0.03127
G1 X126.908 Y110.510 E0.01555
G1 X125.301 Y110.510 E0.07194
G1 X125.301 Y114.208 E0.16547
G1 X110.801 Y114.208 E0.64889
G1 X110.801 Y110.510 E0.16547
G1 X109.193 Y110.510 E0.07194
G1 X109.016 Y110.211 E0.01555
G1 X108.773 Y109.556 E0.03127
G1 X108.703 Y109.000 E0.02509
G1 X108.773 Y108.444 E0.02509
G1 X109.016 Y107.789 E0.03127
G1 X109.193 Y107.490 E0.01555
G1 X110.801 Y107.490 E0.07194
G1 X110.801 Y103.792 E0.16547
G1 X125.301 Y103.792 E0.64889
G1 X125.301 Y107.415 E0.16211
G1 X125.301 Y107.990 F3600.000
G1 X126.167 Y108.720 F3600.000
G1 X126.124 Y108.676 E0.00964 F1200.000
G1 X124.528 Y109.324 E0.27267
G1 X124.488 Y109.284 E0.00895
G1 E-4.00000 F1800.00000
G1 X111.614 Y108.716 F3600.000
G1 E4.00000 F1800.00000
G1 X111.574 Y108.676 E0.00895 F1200.000
G1 X109.978 Y109.324 E0.27268
G1 X109.935 Y109.280 E0.00964
G1 E-4.00000 F1800.00000
G1 Z0.720 F3600.000
G1 X112.801 Y95.250 F3600.000
G1 E4.00000 F1800.00000
G1 X112.801 Y86.750 E0.38038 F1200.000
G1 X123.301 Y86.750 E0.46989
G1 X123.301 Y95.250 E0.38038
G1 X112.876 Y95.250 E0.46653
G1 X112.301 Y95.250 F3600.000
G1 X111.424 Y91.887 F3600.000
G1 X109.561 Y91.887 E0.14848 F1200.000
G1 X109.383 Y91.407 E0.04080
G1 X109.313 Y90.858 E0.04406
G1 X109.349 Y90.858 E0.00286
G1 X109.383 Y90.593 E0.02127
