;Sliced at: Thu 30-04-2015 17:18:14
;Basic settings: Layer height: 0.2 Walls: 1.5 Fill: 85
;M190 S65 ;Uncomment to add your own bed temperature line
;M109 S185 ;Uncomment to add your own temperature line
M140 S65		    ; Turn the bed on
G21             ; metric values
G90             ; absolute positioning
M83             ; Relative extrudes
M107            ; start with the fan off
G28             ; zero the machine
G1 Z5 F9000  ; Go to...
G1 X5 Y30 F9000 ; ...wait for warm position
M116            ; Wait for the bed to heat
G10 P0 S185 R160; Tool 1 Operating and standby temperatures
G10 P1 S195 R160; Tool 2 Operating and standby temperatures
T0              ; Select Tool 0
M116            ; Wait for tools to get to their operating or standby temperatures

;Layer count: 60
;LAYER:0
M107
G1 F1800.000 E-4.0
G1 Z0.200
G1 F9000 X90.250 Y76.250 
G1 F1800.000 E4.0
;TYPE:SKIRT
G1 F600 X112.250 Y76.250 E0.91465
G1 X112.250 Y86.107 E0.40981
G1 X114.250 Y86.107 E0.08315
G1 X114.250 Y81.500 E0.19154
G1 X125.019 Y81.489 E0.44772
G1 X132.250 Y81.496 E0.30063
G1 X132.250 Y81.490 E0.00025
G1 X142.970 Y81.490 E0.44569
G1 X153.750 Y81.479 E0.44818
G1 X153.750 Y123.750 E1.75742
G1 X114.250 Y123.750 E1.64222
G1 X114.250 Y122.707 E0.04336
G1 X103.811 Y122.708 E0.43401
G1 X92.750 Y122.700 E0.45986
G1 X92.750 Y110.401 E0.51133
G1 X90.250 Y107.071 E0.17312
G1 X90.250 Y76.250 E1.28139
G1 F9000 X90.750 Y76.750
G1 F600 X111.750 Y76.750 E0.87308
G1 X111.750 Y86.607 E0.40980
G1 X114.750 Y86.607 E0.12473
G1 X114.750 Y81.999 E0.19158
G1 X125.019 Y81.989 E0.42693
G1 X132.750 Y81.997 E0.32142
G1 X132.750 Y81.990 E0.00029
G1 X142.971 Y81.990 E0.42494
G1 X153.250 Y81.980 E0.42735
G1 X153.250 Y123.250 E1.71581
G1 X114.750 Y123.250 E1.60064
G1 X114.750 Y122.207 E0.04337
G1 X103.811 Y122.208 E0.45479
G1 X93.250 Y122.200 E0.43907
G1 X93.250 Y110.235 E0.49745
G1 X90.750 Y106.905 E0.17312
G1 X90.750 Y76.750 E1.25370
G1 F9000 X91.250 Y77.250
G1 F600 X111.250 Y77.250 E0.83150
G1 X111.250 Y87.107 E0.40981
G1 X115.250 Y87.107 E0.16630
G1 X115.250 Y82.499 E0.19158
G1 X125.019 Y82.489 E0.40615
G1 X133.250 Y82.497 E0.34220
G1 X133.250 Y82.490 E0.00029
G1 X142.971 Y82.490 E0.40415
G1 X152.750 Y82.480 E0.40657
G1 X152.750 Y122.750 E1.67423
G1 X115.250 Y122.750 E1.55907
G1 X115.250 Y121.707 E0.04336
G1 X103.811 Y121.708 E0.47558
G1 X93.750 Y121.700 E0.41829
G1 X93.750 Y110.075 E0.48331
G1 X93.699 Y110.000 E0.00377
G1 X91.250 Y106.738 E0.16959
G1 X91.250 Y77.250 E1.22596
G1 F9000 X91.750 Y77.750
G1 F600 X110.750 Y77.750 E0.78993
G1 X110.750 Y87.606 E0.40977
G1 X115.750 Y87.607 E0.20787
G1 X115.750 Y82.998 E0.19162
G1 X125.019 Y82.989 E0.38536
G1 X133.750 Y82.998 E0.36300
G1 X133.750 Y82.990 E0.00033
G1 X142.972 Y82.990 E0.38341
G1 X152.250 Y82.981 E0.38573
G1 X152.250 Y122.250 E1.63262
G1 X115.750 Y122.250 E1.51749
G1 X115.750 Y121.207 E0.04336
G1 X103.811 Y121.208 E0.49637
G1 X94.250 Y121.201 E0.39750
G1 X94.250 Y109.919 E0.46905
G1 X94.113 Y109.719 E0.01008
G1 X91.750 Y106.571 E0.16365
G1 X91.750 Y77.750 E1.19823
G1 F9000 X92.250 Y78.250
G1 F600 X110.250 Y78.250 E0.74836
G1 X110.250 Y88.106 E0.40976
G1 X116.250 Y88.107 E0.24945
G1 X116.250 Y83.498 E0.19162
G1 X125.019 Y83.489 E0.36458
G1 X133.750 Y83.498 E0.36299
G1 X133.750 Y88.106 E0.19158
G1 X134.250 Y88.107 E0.02078
G1 X134.250 Y83.490 E0.19196
G1 X142.972 Y83.490 E0.36262
G1 X151.750 Y83.481 E0.36494
G1 X151.750 Y121.750 E1.59104
G1 X116.250 Y121.750 E1.47592
G1 X116.250 Y120.707 E0.04336
G1 X103.811 Y120.708 E0.51716
G1 X94.750 Y120.701 E0.37671
G1 X94.750 Y109.764 E0.45471
G1 X94.517 Y109.424 E0.01713
G1 X92.250 Y106.404 E0.15700
G1 X92.250 Y78.250 E1.17051
G1 F9000 X92.750 Y78.750
G1 F600 X109.750 Y78.750 E0.70678
G1 X109.750 Y88.606 E0.40976
G1 X116.750 Y88.607 E0.29103
G1 X116.750 Y83.997 E0.19166
G1 X125.019 Y83.989 E0.34378
G1 X133.250 Y83.997 E0.34221
G1 X133.250 Y88.606 E0.19162
G1 X134.750 Y88.607 E0.06236
G1 X134.750 Y83.990 E0.19195
G1 X142.973 Y83.990 E0.34188
G1 X151.250 Y83.982 E0.34411
G1 X151.250 Y121.250 E1.54943
G1 X116.750 Y121.250 E1.43434
G1 X116.750 Y120.207 E0.04336
G1 X103.812 Y120.208 E0.53790
G1 X95.250 Y120.201 E0.35597
G1 X95.250 Y109.609 E0.44036
G1 X94.921 Y109.130 E0.02416
G1 X92.750 Y106.237 E0.15038
G1 X92.750 Y78.750 E1.14278
G1 F9000 X93.250 Y79.250
G1 F600 X109.250 Y79.250 E0.66520
G1 X109.250 Y89.106 E0.40977
G1 X117.250 Y89.107 E0.33260
G1 X117.250 Y84.497 E0.19166
G1 X125.019 Y84.489 E0.32300
G1 X132.750 Y84.497 E0.32141
G1 X132.750 Y89.106 E0.19162
G1 X135.250 Y89.107 E0.10394
G1 X135.250 Y84.490 E0.19195
G1 X142.973 Y84.490 E0.32109
G1 X150.750 Y84.482 E0.32333
G1 X150.750 Y120.750 E1.50785
G1 X117.250 Y120.750 E1.39277
G1 X117.250 Y119.707 E0.04336
G1 X103.812 Y119.708 E0.55869
G1 X95.750 Y119.702 E0.33518
G1 X95.750 Y109.454 E0.42606
G1 X95.318 Y108.825 E0.03172
G1 X93.250 Y106.071 E0.14319
G1 X93.250 Y79.250 E1.11508
G1 F9000 X93.750 Y79.750
G1 F600 X108.750 Y79.750 E0.62363
G1 X108.750 Y89.606 E0.40977
G1 X117.750 Y89.607 E0.37417
G1 X117.750 Y84.996 E0.19171
G1 X125.019 Y84.989 E0.30221
G1 X132.250 Y84.996 E0.30063
G1 X132.250 Y89.606 E0.19166
G1 X135.750 Y89.607 E0.14551
G1 X135.750 Y84.990 E0.19195
G1 X142.974 Y84.990 E0.30034
G1 X150.250 Y84.983 E0.30250
G1 X150.250 Y120.250 E1.46624
G1 X117.750 Y120.250 E1.35119
G1 X117.750 Y119.207 E0.04336
G1 X103.812 Y119.208 E0.57948
G1 X96.250 Y119.202 E0.31439
G1 X96.250 Y109.299 E0.41172
G1 X95.733 Y108.545 E0.03801
G1 X93.750 Y105.904 E0.13730
G1 X93.750 Y79.750 E1.08736
G1 F9000 X94.250 Y80.250
G1 F600 X108.250 Y80.250 E0.58205
G1 X108.250 Y90.106 E0.40977
G1 X118.250 Y90.107 E0.41575
G1 X118.250 Y85.496 E0.19170
G1 X125.019 Y85.489 E0.28142
G1 X131.750 Y85.496 E0.27985
G1 X131.750 Y90.106 E0.19166
G1 X136.250 Y90.107 E0.18709
G1 X136.250 Y85.490 E0.19195
G1 X142.974 Y85.490 E0.27955
G1 X149.750 Y85.483 E0.28171
G1 X149.750 Y119.750 E1.42466
G1 X118.250 Y119.750 E1.30962
G1 X118.250 Y118.707 E0.04336
G1 X103.812 Y118.708 E0.60026
G1 X96.750 Y118.703 E0.29361
G1 X96.750 Y109.158 E0.39683
G1 X96.692 Y109.060 E0.00474
G1 X96.129 Y108.240 E0.04135
G1 X94.250 Y105.737 E0.13012
G1 X94.250 Y80.250 E1.05963
G1 F9000 X94.750 Y80.750
G1 F600 X107.750 Y80.750 E0.54048
G1 X107.750 Y90.606 E0.40976
G1 X118.750 Y90.607 E0.45733
G1 X118.750 Y85.995 E0.19174
G1 X125.019 Y85.989 E0.26064
G1 X131.250 Y85.995 E0.25905
G1 X131.250 Y90.606 E0.19170
G1 X136.750 Y90.607 E0.22867
G1 X136.750 Y85.990 E0.19195
G1 X142.975 Y85.990 E0.25881
G1 X149.250 Y85.984 E0.26088
G1 X149.250 Y119.250 E1.38304
G1 X118.750 Y119.250 E1.26804
G1 X118.750 Y118.207 E0.04337
G1 X103.812 Y118.208 E0.62105
G1 X97.250 Y118.203 E0.27281
G1 X97.250 Y109.020 E0.38179
G1 X97.119 Y108.799 E0.01068
G1 X96.544 Y107.960 E0.04228
G1 X94.750 Y105.570 E0.12425
G1 X94.750 Y80.750 E1.03189
G1 F9000 X95.250 Y81.250
G1 F600 X107.250 Y81.250 E0.49891
G1 X107.250 Y91.106 E0.40976
G1 X119.250 Y91.107 E0.49890
G1 X119.250 Y86.495 E0.19175
G1 X125.019 Y86.489 E0.23984
G1 X130.750 Y86.495 E0.23827
G1 X130.750 Y91.106 E0.19170
G1 X137.250 Y91.107 E0.27024
G1 X137.250 Y86.490 E0.19196
G1 X142.975 Y86.490 E0.23801
G1 X148.750 Y86.484 E0.24010
G1 X148.750 Y118.750 E1.34147
G1 X119.250 Y118.750 E1.22646
G1 X119.250 Y117.707 E0.04337
G1 X103.812 Y117.708 E0.64183
G1 X97.750 Y117.703 E0.25203
G1 X97.750 Y108.885 E0.36661
G1 X97.535 Y108.520 E0.01761
G1 X96.959 Y107.681 E0.04231
G1 X95.250 Y105.404 E0.11837
G1 X95.250 Y81.250 E1.00421
G1 F9000 X95.750 Y81.750
G1 F600 X106.750 Y81.750 E0.45732
G1 X106.750 Y91.606 E0.40977
G1 X119.733 Y91.607 E0.53977
G1 X119.750 Y91.607 E0.00070
G1 X119.750 Y86.994 E0.19179
G1 X125.019 Y86.989 E0.21906
G1 X130.250 Y86.994 E0.21748
G1 X130.250 Y91.606 E0.19174
G1 X137.750 Y91.607 E0.31182
G1 X137.750 Y86.990 E0.19195
G1 X142.976 Y86.990 E0.21727
G1 X148.250 Y86.985 E0.21927
G1 X148.250 Y118.250 E1.29985
G1 X119.750 Y118.250 E1.18489
G1 X119.750 Y117.207 E0.04336
G1 X103.813 Y117.208 E0.66259
G1 X98.250 Y117.204 E0.23128
G1 X98.250 Y108.748 E0.35156
G1 X97.962 Y108.259 E0.02359
G1 X97.362 Y107.385 E0.04408
G1 X95.750 Y105.237 E0.11165
G1 X95.750 Y81.750 E0.97648
G1 F9000 X96.250 Y82.250
G1 F600 X106.250 Y82.250 E0.41575
G1 X106.250 Y92.106 E0.40977
G1 X119.735 Y92.107 E0.56064
G1 X120.250 Y92.105 E0.02141
G1 X120.250 Y87.494 E0.19170
G1 X125.019 Y87.489 E0.19827
G1 X129.750 Y87.494 E0.19669
G1 X129.750 Y92.106 E0.19175
G1 X138.250 Y92.107 E0.35339
G1 X138.250 Y87.490 E0.19195
G1 X142.976 Y87.490 E0.19649
G1 X147.750 Y87.485 E0.19848
G1 X147.750 Y117.750 E1.25827
G1 X120.250 Y117.750 E1.14332
G1 X120.250 Y116.707 E0.04336
G1 X103.813 Y116.708 E0.68337
G1 X98.750 Y116.704 E0.21049
G1 X98.750 Y108.611 E0.33647
G1 X98.385 Y107.992 E0.02988
G1 X97.759 Y107.080 E0.04599
G1 X96.250 Y105.070 E0.10449
G1 X96.250 Y82.250 E0.94875
G1 F9000 X96.750 Y82.750
G1 F600 X105.750 Y82.750 E0.37417
G1 X105.750 Y92.606 E0.40977
G1 X119.737 Y92.607 E0.58151
G1 X120.750 Y92.603 E0.04212
G1 X120.750 Y87.993 E0.19166
G1 X125.019 Y87.989 E0.17748
G1 X129.250 Y87.993 E0.17591
G1 X129.250 Y92.606 E0.19178
G1 X138.750 Y92.607 E0.39497
G1 X138.750 Y87.990 E0.19195
G1 X142.977 Y87.990 E0.17574
G1 X147.250 Y87.986 E0.17765
G1 X147.250 Y117.250 E1.21666
G1 X120.750 Y117.250 E1.10174
G1 X120.750 Y116.207 E0.04336
G1 X103.813 Y116.208 E0.70416
G1 X99.250 Y116.205 E0.18971
G1 X99.250 Y108.475 E0.32137
G1 X98.801 Y107.714 E0.03674
G1 X98.163 Y106.785 E0.04685
G1 X96.750 Y104.903 E0.09784
G1 X96.750 Y82.750 E0.92102
G1 F9000 X97.250 Y83.250
G1 F600 X105.250 Y83.250 E0.33260
G1 X105.250 Y93.106 E0.40977
G1 X119.739 Y93.107 E0.60238
G1 X121.250 Y93.101 E0.06282
G1 X121.250 Y88.493 E0.19158
G1 X125.019 Y88.489 E0.15669
G1 X128.750 Y88.493 E0.15512
G1 X128.750 Y93.106 E0.19179
G1 X139.250 Y93.107 E0.43654
G1 X139.250 Y88.490 E0.19195
G1 X142.977 Y88.490 E0.15495
G1 X146.750 Y88.486 E0.15686
G1 X146.750 Y116.750 E1.17508
G1 X121.250 Y116.750 E1.06017
G1 X121.250 Y106.755 E0.41554
G1 X120.793 Y107.419 E0.03352
G1 X120.250 Y108.339 E0.04441
G1 X120.250 Y115.707 E0.30633
G1 X103.813 Y115.708 E0.68337
G1 X99.750 Y115.705 E0.16892
G1 X99.750 Y108.338 E0.30628
G1 X99.214 Y107.429 E0.04388
G1 X99.205 Y107.419 E0.00055
G1 X98.578 Y106.505 E0.04609
G1 X97.250 Y104.736 E0.09196
G1 X97.250 Y83.250 E0.89328
G1 F9000 X97.750 Y83.750
G1 F600 X104.750 Y83.750 E0.29103
G1 X104.750 Y93.606 E0.40977
G1 X119.741 Y93.607 E0.62325
G1 X121.750 Y93.599 E0.08352
G1 X121.750 Y88.992 E0.19154
G1 X125.019 Y88.989 E0.13591
G1 X128.250 Y88.992 E0.13433
G1 X128.250 Y93.607 E0.19187
G1 X128.548 Y93.606 E0.01239
G1 X139.750 Y93.607 E0.46572
G1 X139.750 Y88.990 E0.19196
G1 X142.978 Y88.990 E0.13420
G1 X146.250 Y88.987 E0.13603
G1 X146.250 Y116.250 E1.13347
G1 X121.750 Y116.250 E1.01859
G1 X121.750 Y105.237 E0.45787
G1 X121.149 Y106.049 E0.04200
G1 X120.999 Y106.239 E0.01006
G1 X120.374 Y107.145 E0.04576
G1 X119.750 Y108.203 E0.05107
G1 X119.750 Y115.207 E0.29119
G1 X103.813 Y115.208 E0.66258
G1 X100.250 Y115.205 E0.14814
G1 X100.250 Y108.202 E0.29115
G1 X99.622 Y107.138 E0.05136
G1 X99.603 Y107.116 E0.00121
G1 X98.982 Y106.211 E0.04563
G1 X97.750 Y104.570 E0.08532
G1 X97.750 Y83.750 E0.86559
G1 F9000 X98.250 Y84.250
G1 F600 X104.250 Y84.250 E0.24945
G1 X104.250 Y94.106 E0.40977
G1 X119.743 Y94.107 E0.64412
G1 X121.750 Y94.099 E0.08344
G1 X121.750 Y104.396 E0.42810
G1 X120.752 Y105.745 E0.06977
G1 X120.600 Y105.936 E0.01015
G1 X119.945 Y106.887 E0.04801
G1 X119.250 Y108.066 E0.05690
G1 X119.250 Y114.707 E0.27610
G1 X103.813 Y114.708 E0.64179
G1 X100.750 Y114.706 E0.12735
G1 X100.750 Y108.065 E0.27610
G1 X100.046 Y106.872 E0.05759
G1 X100.026 Y106.841 E0.00153
G1 X100.001 Y106.812 E0.00159
G1 X99.397 Y105.931 E0.04441
G1 X98.250 Y104.403 E0.07944
G1 X98.250 Y84.250 E0.83786
G1 F9000 X98.750 Y84.750
G1 F600 X103.750 Y84.750 E0.20788
G1 X103.750 Y94.606 E0.40976
G1 X119.745 Y94.607 E0.66500
G1 X121.250 Y94.601 E0.06257
G1 X121.250 Y104.231 E0.40037
G1 X120.355 Y105.441 E0.06257
G1 X120.200 Y105.636 E0.01035
G1 X119.518 Y106.626 E0.04999
G1 X118.750 Y107.928 E0.06284
G1 X118.750 Y114.207 E0.26105
G1 X103.814 Y114.208 E0.62097
G1 X101.250 Y114.206 E0.10660
G1 X101.250 Y107.928 E0.26101
G1 X100.473 Y106.611 E0.06357
G1 X100.426 Y106.539 E0.00358
G1 X100.399 Y106.508 E0.00170
G1 X99.793 Y105.625 E0.04453
G1 X98.750 Y104.236 E0.07222
G1 X98.750 Y84.750 E0.81013
G1 F9000 X99.250 Y85.250
G1 F600 X103.250 Y85.250 E0.16630
G1 X103.250 Y95.106 E0.40976
G1 X119.747 Y95.107 E0.68587
G1 X120.750 Y95.103 E0.04170
G1 X120.750 Y104.066 E0.37264
G1 X119.958 Y105.137 E0.05538
G1 X119.793 Y105.346 E0.01107
G1 X119.104 Y106.345 E0.05045
G1 X118.250 Y107.793 E0.06989
G1 X118.250 Y113.707 E0.24588
G1 X101.750 Y113.707 E0.68599
G1 X101.750 Y107.792 E0.24592
G1 X100.890 Y106.335 E0.07034
G1 X100.829 Y106.242 E0.00462
G1 X100.797 Y106.205 E0.00203
G1 X100.210 Y105.348 E0.04319
G1 X99.250 Y104.069 E0.06649
G1 X99.250 Y85.250 E0.78240
G1 F9000 X99.750 Y85.750
G1 F600 X102.750 Y85.750 E0.12473
G1 X102.750 Y95.606 E0.40976
G1 X120.250 Y95.606 E0.72757
G1 X120.250 Y103.901 E0.34486
G1 X119.561 Y104.833 E0.04819
G1 X119.397 Y105.039 E0.01095
G1 X118.678 Y106.083 E0.05270
G1 X117.845 Y107.495 E0.06816
G1 X117.750 Y107.498 E0.00395
G1 X117.750 Y113.207 E0.23735
G1 X102.250 Y113.207 E0.64442
G1 X102.250 Y107.502 E0.23718
G1 X102.160 Y107.504 E0.00375
G1 X101.314 Y106.069 E0.06925
G1 X101.228 Y105.940 E0.00645
G1 X101.195 Y105.901 E0.00212
G1 X100.610 Y105.048 E0.04300
G1 X99.750 Y103.902 E0.05957
G1 X99.750 Y85.750 E0.75468
G1 F9000 X122.250 Y89.492
G1 F600 X125.019 Y89.489 E0.11512
G1 X127.750 Y89.492 E0.11354
G1 X127.750 Y94.107 E0.19187
G1 X128.548 Y94.106 E0.03318
G1 X139.915 Y94.107 E0.47258
G1 X140.250 Y94.100 E0.01393
G1 X140.250 Y89.490 E0.19166
G1 X142.978 Y89.490 E0.11342
G1 X145.750 Y89.487 E0.11525
G1 X145.750 Y115.750 E1.09188
G1 X122.250 Y115.750 E0.97702
G1 X122.250 Y89.492 E1.09168
G1 F9000 X125.019 Y89.989
G1 F600 X127.250 Y89.991 E0.09276
G1 X127.250 Y94.608 E0.19195
G1 X128.549 Y94.606 E0.05401
G1 X139.925 Y94.607 E0.47295
G1 X140.750 Y94.591 E0.03431
G1 X140.750 Y89.990 E0.19129
G1 X142.979 Y89.990 E0.09267
G1 X145.250 Y89.988 E0.09442
G1 X145.250 Y115.250 E1.05027
G1 X122.750 Y115.250 E0.93544
G1 X122.750 Y89.991 E1.05015
G1 X125.019 Y89.989 E0.09433
G1 F9000 X125.019 Y90.489
G1 F600 X126.750 Y90.491 E0.07197
G1 X126.750 Y101.250 E0.44730
G1 X127.250 Y101.250 E0.02079
G1 X127.250 Y95.108 E0.25536
G1 X128.549 Y95.106 E0.05400
G1 X139.935 Y95.107 E0.47338
G1 X140.750 Y95.091 E0.03389
G1 X140.750 Y101.250 E0.25606
G1 X141.250 Y101.250 E0.02079
G1 X141.250 Y90.490 E0.44735
G1 X144.750 Y90.489 E0.14551
G1 X144.750 Y114.750 E1.00865
G1 X123.250 Y114.750 E0.89387
G1 X123.250 Y90.491 E1.00857
G1 X125.019 Y90.489 E0.07355
G1 F9000 X126.250 Y90.990
G1 F600 X126.250 Y101.750 E0.44735
G1 X127.750 Y101.750 E0.06236
G1 X127.750 Y95.607 E0.25540
G1 X139.945 Y95.607 E0.50701
G1 X140.250 Y95.601 E0.01268
G1 X140.250 Y101.750 E0.25564
G1 X141.750 Y101.750 E0.06237
G1 X141.750 Y90.990 E0.44735
G1 X144.250 Y90.989 E0.10393
G1 X144.250 Y114.250 E0.96708
G1 X123.750 Y114.250 E0.85229
G1 X123.750 Y90.990 E0.96704
G1 X126.250 Y90.990 E0.10394
G1 F2400 E-4.50000
G1 F9000 X118.750 Y97.107
;TYPE:WALL-INNER
G1 F2400 E4.50000
G1 F600 X118.750 Y103.406 E0.26188
G1 X118.362 Y103.931 E0.02714
G1 X117.418 Y105.268 E0.06805
G1 X116.989 Y105.996 E0.03513
G1 X116.250 Y105.991 E0.03072
G1 X116.250 Y111.707 E0.23765
G1 X103.815 Y111.708 E0.51699
G1 X103.750 Y111.708 E0.00270
G1 X103.750 Y106.008 E0.23698
G1 X103.016 Y106.003 E0.03051
G1 X102.589 Y105.279 E0.03495
G1 X101.826 Y104.169 E0.05600
G1 X101.250 Y103.402 E0.03988
G1 X101.250 Y97.106 E0.26175
G1 X118.750 Y97.107 E0.72757
G1 F9000 X112.593 Y101.575
G1 F600 X112.158 Y100.974 E0.03085
G1 X111.585 Y100.500 E0.03091
G1 X110.914 Y100.185 E0.03082
G1 X110.185 Y100.045 E0.03086
G1 X109.446 Y100.092 E0.03079
G1 X108.741 Y100.321 E0.03082
G1 X108.114 Y100.719 E0.03087
G1 X107.606 Y101.259 E0.03083
G1 X107.248 Y101.911 E0.03092
G1 X107.064 Y102.628 E0.03078
G1 X107.064 Y103.371 E0.03089
G1 X107.248 Y104.088 E0.03077
G1 X107.606 Y104.740 E0.03093
G1 X108.114 Y105.280 E0.03082
G1 X108.741 Y105.678 E0.03088
G1 X109.446 Y105.907 E0.03081
G1 X110.185 Y105.954 E0.03079
G1 X110.914 Y105.814 E0.03086
G1 X111.585 Y105.499 E0.03082
G1 X112.158 Y105.025 E0.03092
G1 X112.593 Y104.424 E0.03084
G1 X112.866 Y103.735 E0.03081
G1 X112.959 Y103.000 E0.03080
G1 X112.867 Y102.264 E0.03084
G1 X112.593 Y101.575 E0.03083
G1 F9000 X112.152 Y101.817
G1 F600 X111.790 Y101.319 E0.02560
G1 X111.315 Y100.926 E0.02563
G1 X110.759 Y100.664 E0.02555
G1 X110.153 Y100.548 E0.02565
G1 X109.541 Y100.587 E0.02550
G1 X108.955 Y100.777 E0.02561
G1 X108.435 Y101.108 E0.02563
G1 X108.013 Y101.555 E0.02556
G1 X107.717 Y102.096 E0.02563
G1 X107.564 Y102.691 E0.02555
G1 X107.564 Y103.308 E0.02565
G1 X107.717 Y103.903 E0.02554
G1 X108.013 Y104.444 E0.02564
G1 X108.435 Y104.891 E0.02556
G1 X108.955 Y105.222 E0.02562
G1 X109.541 Y105.412 E0.02561
G1 X110.153 Y105.451 E0.02550
G1 X110.759 Y105.335 E0.02565
G1 X111.315 Y105.073 E0.02556
G1 X111.790 Y104.680 E0.02563
G1 X112.152 Y104.182 E0.02559
G1 X112.378 Y103.610 E0.02557
G1 X112.455 Y103.000 E0.02557
G1 X112.378 Y102.389 E0.02560
G1 X112.152 Y101.817 E0.02557
G1 F9000 X116.750 Y106.494
G1 F600 X116.750 Y112.207 E0.23752
G1 X103.250 Y112.207 E0.56126
G1 X103.250 Y106.505 E0.23706
G1 X102.730 Y106.502 E0.02162
G1 X102.165 Y105.544 E0.04624
G1 X102.028 Y105.337 E0.01032
G1 X101.987 Y105.289 E0.00263
G1 X101.419 Y104.460 E0.04178
G1 X100.750 Y103.569 E0.04632
G1 X100.750 Y86.750 E0.69925
G1 X101.750 Y86.750 E0.04158
G1 X101.750 Y96.606 E0.40976
G1 X119.250 Y96.607 E0.72757
G1 X119.250 Y103.572 E0.28957
G1 X118.774 Y104.215 E0.03326
G1 X118.587 Y104.451 E0.01252
G1 X117.839 Y105.537 E0.05482
G1 X117.273 Y106.497 E0.04634
G1 X116.750 Y106.494 E0.02174
G1 F9000 X117.250 Y106.997
;TYPE:WALL-OUTER
G1 F600 X117.250 Y112.707 E0.23739
G1 X102.750 Y112.707 E0.60284
G1 X102.750 Y107.002 E0.23719
G1 X102.443 Y107.000 E0.01277
G1 X101.741 Y105.809 E0.05747
G1 X101.013 Y104.752 E0.05336
G1 X100.250 Y103.736 E0.05283
G1 X100.250 Y86.250 E0.72698
G1 X102.250 Y86.250 E0.08315
G1 X102.250 Y96.106 E0.40977
G1 X119.750 Y96.106 E0.72756
G1 X119.750 Y103.736 E0.31722
G1 X119.161 Y104.532 E0.04117
G1 X118.261 Y105.806 E0.06485
G1 X117.557 Y106.999 E0.05759
G1 X117.250 Y106.997 E0.01276
G1 F9000 X117.252 Y106.648
G1 X112.035 Y104.068
G1 X111.710 Y103.939
G1 F600 X111.890 Y103.485 E0.02031
G1 X111.951 Y103.000 E0.02032
G1 X111.890 Y102.514 E0.02037
G1 X111.710 Y102.060 E0.02030
G1 X111.423 Y101.664 E0.02033
G1 X111.045 Y101.351 E0.02041
G1 X110.603 Y101.143 E0.02031
G1 X110.122 Y101.051 E0.02036
G1 X109.635 Y101.082 E0.02028
G1 X109.170 Y101.233 E0.02033
G1 X108.756 Y101.496 E0.02039
G1 X108.421 Y101.852 E0.02033
G1 X108.186 Y102.281 E0.02033
G1 X108.064 Y102.754 E0.02031
G1 X108.064 Y103.245 E0.02041
G1 X108.186 Y103.718 E0.02031
G1 X108.421 Y104.147 E0.02034
G1 X108.756 Y104.503 E0.02032
G1 X109.170 Y104.766 E0.02039
G1 X109.635 Y104.917 E0.02033
G1 X110.122 Y104.948 E0.02029
G1 X110.603 Y104.856 E0.02036
G1 X111.045 Y104.648 E0.02031
G1 X111.423 Y104.335 E0.02040
G1 X111.710 Y103.939 E0.02033
G1 F9000 X112.702 Y104.570
;TYPE:SKIN
G1 F600 X116.074 Y107.942 E0.19826
G1 F9000 X116.074 Y108.649
G1 F600 X112.405 Y104.980 E0.21573
G1 F9000 X112.054 Y105.336
G1 F600 X116.074 Y109.356 E0.23636
G1 F9000 X116.074 Y110.063
G1 F600 X111.664 Y105.654 E0.25926
G1 F9000 X111.184 Y105.880
G1 F600 X116.074 Y110.771 E0.28754
G1 F9000 X116.074 Y111.478
G1 F600 X110.640 Y106.044 E0.31950
G1 F9000 X110.006 Y106.117
G1 F600 X115.421 Y111.531 E0.31835
G1 F9000 X114.713 Y111.531
G1 F600 X109.190 Y106.008 E0.32473
G1 F9000 X106.997 Y103.815
G1 F600 X101.424 Y98.242 E0.32768
G1 F9000 X101.424 Y98.949
G1 F600 X114.006 Y111.531 E0.73977
G1 F9000 X113.299 Y111.531
G1 F600 X101.424 Y99.656 E0.69820
G1 F9000 X101.424 Y97.535
G1 F600 X106.888 Y102.999 E0.32127
G1 F9000 X106.953 Y102.357
G1 F600 X101.877 Y97.281 E0.29844
G1 F9000 X102.584 Y97.281
G1 F600 X107.106 Y101.803 E0.26588
G1 F9000 X107.357 Y101.347
G1 F600 X103.292 Y97.281 E0.23904
G1 F9000 X103.999 Y97.281
G1 F600 X107.661 Y100.944 E0.21534
G1 F9000 X108.004 Y100.579
G1 F600 X104.706 Y97.281 E0.19391
G1 F9000 X105.413 Y97.281
G1 F600 X108.436 Y100.305 E0.17777
G1 F9000 X108.917 Y100.078
G1 F600 X106.120 Y97.281 E0.16445
G1 F9000 X106.827 Y97.281
G1 F600 X109.462 Y99.916 E0.15493
G1 F9000 X110.126 Y99.873
G1 F600 X107.534 Y97.281 E0.15240
G1 F9000 X108.241 Y97.281
G1 F600 X110.983 Y100.023 E0.16122
G1 F9000 X111.070 Y97.281
G1 F600 X117.970 Y104.181 E0.40569
G1 F9000 X118.264 Y103.768
G1 F600 X111.777 Y97.281 E0.38141
G1 F9000 X112.484 Y97.281
G1 F600 X118.564 Y103.362 E0.35751
G1 F9000 X118.574 Y102.664
G1 F600 X113.191 Y97.281 E0.31650
G1 F9000 X113.898 Y97.281
G1 F600 X118.574 Y101.957 E0.27493
G1 F9000 X118.574 Y101.250
G1 F600 X114.605 Y97.281 E0.23336
G1 F9000 X115.312 Y97.281
G1 F600 X118.574 Y100.543 E0.19180
G1 F9000 X117.677 Y104.595
G1 F600 X110.363 Y97.281 E0.43003
G1 F9000 X109.655 Y97.281
G1 F600 X117.384 Y105.010 E0.45444
G1 F9000 X117.111 Y105.443
G1 F600 X108.948 Y97.281 E0.47992
G1 F9000 X116.019 Y97.281
G1 F600 X118.574 Y99.836 E0.15023
G1 F9000 X118.574 Y99.129
G1 F600 X116.727 Y97.281 E0.10862
G1 F9000 X117.434 Y97.281
G1 F600 X118.574 Y98.422 E0.06706
G1 F9000 X118.574 Y97.715
G1 F600 X118.141 Y97.281 E0.02549
G1 F9000 X112.942 Y101.982
G1 F600 X116.779 Y105.819 E0.22560
G1 F9000 X116.074 Y105.821
G1 F600 X113.118 Y102.865 E0.17380
G1 F9000 X113.069 Y103.523
G1 F600 X116.074 Y106.528 E0.17668
G1 F9000 X116.074 Y107.235
G1 F600 X112.917 Y104.078 E0.18562
G1 F9000 X112.592 Y111.531
G1 F600 X101.424 Y100.363 E0.65664
G1 F9000 X101.424 Y101.071
G1 F600 X111.885 Y111.531 E0.61503
G1 F9000 X111.178 Y111.531
G1 F600 X101.424 Y101.778 E0.57347
G1 F9000 X101.424 Y102.485
G1 F600 X110.471 Y111.531 E0.53190
G1 F9000 X109.764 Y111.531
G1 F600 X101.424 Y103.192 E0.49033
G1 F9000 X102.775 Y105.250
G1 F600 X103.354 Y105.829 E0.03405
G1 F9000 X103.924 Y106.399
G1 F600 X109.057 Y111.531 E0.30177
G1 F9000 X108.349 Y111.531
G1 F600 X103.924 Y107.106 E0.26017
G1 F9000 X103.924 Y107.813
G1 F600 X107.642 Y111.531 E0.21860
G1 F9000 X106.935 Y111.531
G1 F600 X103.924 Y108.521 E0.17701
G1 F9000 X103.924 Y109.228
G1 F600 X106.228 Y111.531 E0.13544
G1 F9000 X105.521 Y111.531
G1 F600 X103.924 Y109.935 E0.09387
G1 F9000 X103.924 Y110.642
G1 F600 X104.814 Y111.531 E0.05229
G1 F9000 X104.107 Y111.531
G1 F600 X103.924 Y111.349 E0.01074
G1 F2400 E-4.50000
G1 F9000 X125.250 Y112.750
;TYPE:WALL-INNER
G1 F2400 E4.50000
G1 F600 X125.250 Y103.250 E0.39496
G1 X129.250 Y103.250 E0.16630
G1 X129.250 Y97.106 E0.25544
G1 X138.750 Y97.107 E0.39496
G1 X138.750 Y103.250 E0.25540
G1 X142.750 Y103.250 E0.16630
G1 X142.750 Y112.750 E0.39496
G1 X125.250 Y112.750 E0.72757
G1 F9000 X131.247 Y110.088
G1 F600 X131.605 Y110.740 E0.03092
G1 X132.113 Y111.280 E0.03083
G1 X132.740 Y111.678 E0.03087
G1 X133.445 Y111.907 E0.03082
G1 X134.185 Y111.954 E0.03083
G1 X134.914 Y111.814 E0.03086
G1 X135.585 Y111.499 E0.03082
G1 X136.158 Y111.025 E0.03092
G1 X136.593 Y110.424 E0.03084
G1 X136.866 Y109.737 E0.03073
G1 X136.960 Y109.000 E0.03089
G1 X136.866 Y108.263 E0.03089
G1 X136.593 Y107.575 E0.03078
G1 X136.158 Y106.974 E0.03084
G1 X135.585 Y106.500 E0.03092
G1 X134.914 Y106.185 E0.03082
G1 X134.185 Y106.045 E0.03086
G1 X133.445 Y106.092 E0.03083
G1 X132.740 Y106.321 E0.03081
G1 X132.113 Y106.719 E0.03088
G1 X131.605 Y107.259 E0.03082
G1 X131.247 Y107.911 E0.03093
G1 X131.063 Y108.628 E0.03077
G1 X131.063 Y109.371 E0.03089
G1 X131.247 Y110.088 E0.03078
G1 F9000 X131.716 Y109.903
G1 F600 X132.012 Y110.444 E0.02564
G1 X132.434 Y110.891 E0.02556
G1 X132.954 Y111.222 E0.02562
G1 X133.540 Y111.412 E0.02561
G1 X134.153 Y111.451 E0.02554
G1 X134.759 Y111.335 E0.02565
G1 X135.315 Y111.073 E0.02556
G1 X135.790 Y110.680 E0.02563
G1 X136.152 Y110.182 E0.02559
G1 X136.378 Y109.611 E0.02554
G1 X136.456 Y109.000 E0.02560
G1 X136.378 Y108.388 E0.02565
G1 X136.152 Y107.817 E0.02554
G1 X135.790 Y107.319 E0.02559
G1 X135.315 Y106.926 E0.02563
G1 X134.759 Y106.664 E0.02556
G1 X134.153 Y106.548 E0.02565
G1 X133.540 Y106.587 E0.02554
G1 X132.954 Y106.777 E0.02561
G1 X132.434 Y107.108 E0.02562
G1 X132.012 Y107.555 E0.02556
G1 X131.716 Y108.096 E0.02564
G1 X131.563 Y108.691 E0.02554
G1 X131.563 Y109.308 E0.02565
G1 X131.716 Y109.903 E0.02555
G1 F9000 X128.750 Y102.750
G1 F600 X128.750 Y96.606 E0.25543
G1 X139.250 Y96.607 E0.43654
G1 X139.250 Y102.750 E0.25540
G1 X142.750 Y102.750 E0.14551
G1 X142.750 Y91.990 E0.44735
G1 X143.250 Y91.989 E0.02079
G1 X143.250 Y113.250 E0.88393
G1 X124.750 Y113.250 E0.76914
G1 X124.750 Y91.989 E0.88393
G1 X125.250 Y91.989 E0.02079
G1 X125.250 Y102.750 E0.44739
G1 X128.750 Y102.750 E0.14551
G1 F9000 X128.250 Y102.250
;TYPE:WALL-OUTER
G1 F600 X128.250 Y96.107 E0.25540
G1 X139.750 Y96.107 E0.47811
G1 X139.750 Y102.250 E0.25540
G1 X142.250 Y102.250 E0.10394
G1 X142.250 Y91.490 E0.44734
G1 X143.750 Y91.489 E0.06237
G1 X143.750 Y113.750 E0.92550
G1 X124.250 Y113.750 E0.81072
G1 X124.250 Y91.490 E0.92546
G1 X125.750 Y91.490 E0.06236
G1 X125.750 Y102.250 E0.44735
G1 X128.250 Y102.250 E0.10394
G1 F9000 X128.250 Y102.600
G1 X132.502 Y107.256
G1 X132.755 Y107.496
G1 F600 X132.420 Y107.852 E0.02032
G1 X132.185 Y108.281 E0.02034
G1 X132.063 Y108.754 E0.02031
G1 X132.063 Y109.245 E0.02041
G1 X132.185 Y109.718 E0.02031
G1 X132.420 Y110.147 E0.02034
G1 X132.755 Y110.503 E0.02032
G1 X133.169 Y110.766 E0.02039
G1 X133.634 Y110.917 E0.02033
G1 X134.122 Y110.948 E0.02033
G1 X134.603 Y110.856 E0.02036
G1 X135.045 Y110.648 E0.02031
G1 X135.423 Y110.335 E0.02040
G1 X135.710 Y109.939 E0.02033
G1 X135.890 Y109.485 E0.02031
G1 X135.952 Y109.000 E0.02033
G1 X135.890 Y108.514 E0.02037
G1 X135.710 Y108.060 E0.02030
G1 X135.423 Y107.664 E0.02033
G1 X135.045 Y107.351 E0.02041
G1 X134.603 Y107.143 E0.02031
G1 X134.122 Y107.051 E0.02036
G1 X133.634 Y107.082 E0.02033
G1 X133.169 Y107.233 E0.02032
G1 X132.755 Y107.496 E0.02039
G1 F9000 X131.847 Y106.745
;TYPE:SKIN
G1 F600 X128.527 Y103.424 E0.19524
G1 F9000 X127.820 Y103.424
G1 F600 X131.505 Y107.110 E0.21669
G1 F9000 X131.243 Y107.555
G1 F600 X127.113 Y103.424 E0.24286
G1 F9000 X126.405 Y103.424
G1 F600 X131.031 Y108.050 E0.27199
G1 F9000 X130.887 Y108.613
G1 F600 X125.698 Y103.424 E0.30509
G1 F9000 X125.424 Y103.857
G1 F600 X130.887 Y109.320 E0.32121
G1 F9000 X131.168 Y110.308
G1 F600 X125.424 Y104.564 E0.33772
G1 F9000 X125.424 Y105.271
G1 F600 X132.727 Y112.574 E0.42939
G1 F9000 X132.020 Y112.574
G1 F600 X125.424 Y105.979 E0.38779
G1 F9000 X125.424 Y106.686
G1 F600 X131.313 Y112.574 E0.34622
G1 F9000 X130.606 Y112.574
G1 F600 X125.424 Y107.393 E0.30465
G1 F9000 X125.424 Y108.100
G1 F600 X129.899 Y112.574 E0.26309
G1 F9000 X129.191 Y112.574
G1 F600 X125.424 Y108.807 E0.22148
G1 F9000 X125.424 Y109.514
G1 F600 X128.484 Y112.574 E0.17992
G1 F9000 X127.777 Y112.574
G1 F600 X125.424 Y110.221 E0.13835
G1 F9000 X125.424 Y110.928
G1 F600 X127.070 Y112.574 E0.09677
G1 F9000 X126.363 Y112.574
G1 F600 X125.424 Y111.635 E0.05521
G1 F9000 X125.424 Y112.343
G1 F600 X125.656 Y112.574 E0.01362
G1 F9000 X132.714 Y111.855
G1 F600 X133.434 Y112.574 E0.04230
G1 F9000 X133.662 Y112.096
G1 F600 X134.255 Y112.335 E0.02807
G1 X134.906 Y112.278 E0.02804
G1 X135.555 Y112.574 E0.02965
G1 F9000 X136.263 Y112.574
G1 F600 X135.445 Y111.757 E0.04807
G1 F9000 X135.878 Y111.483
G1 F600 X136.970 Y112.574 E0.06417
G1 F9000 X137.677 Y112.574
G1 F600 X136.265 Y111.162 E0.08303
G1 F9000 X136.566 Y110.756
G1 F600 X138.384 Y112.574 E0.10689
G1 F9000 X139.091 Y112.574
G1 F600 X136.825 Y110.309 E0.13320
G1 F9000 X137.026 Y109.803
G1 F600 X139.798 Y112.574 E0.16295
G1 F9000 X140.505 Y112.574
G1 F600 X137.112 Y109.182 E0.19947
G1 F9000 X137.062 Y108.424
G1 F600 X141.212 Y112.574 E0.24400
G1 F9000 X141.919 Y112.574
G1 F600 X136.514 Y107.169 E0.31780
G1 F9000 X135.777 Y106.432
G1 F600 X129.423 Y100.078 E0.37359
G1 F9000 X129.423 Y100.786
G1 F600 X134.580 Y105.942 E0.30318
G1 F9000 X133.822 Y105.892
G1 F600 X129.423 Y101.493 E0.25864
G1 F9000 X129.423 Y102.200
G1 F600 X133.207 Y105.983 E0.22246
G1 F9000 X132.673 Y106.157
G1 F600 X129.423 Y102.907 E0.19109
G1 F9000 X129.234 Y103.424
G1 F600 X132.239 Y106.430 E0.17671
G1 F9000 X138.574 Y102.865
G1 F600 X132.990 Y97.281 E0.32832
G1 F9000 X132.283 Y97.281
G1 F600 X142.574 Y107.572 E0.60507
G1 F9000 X142.574 Y108.279
G1 F600 X131.576 Y97.281 E0.64664
G1 F9000 X130.869 Y97.281
G1 F600 X142.574 Y108.987 E0.68824
G1 F9000 X142.574 Y109.694
G1 F600 X130.162 Y97.281 E0.72980
G1 F9000 X129.454 Y97.281
G1 F600 X142.574 Y110.401 E0.77141
G1 F9000 X142.574 Y111.108
G1 F600 X129.423 Y97.957 E0.77323
G1 F9000 X129.423 Y98.664
G1 F600 X142.574 Y111.815 E0.77323
G1 F9000 X142.574 Y112.522
G1 F600 X129.423 Y99.371 E0.77322
G1 F9000 X133.697 Y97.281
G1 F600 X138.574 Y102.158 E0.28675
G1 F9000 X138.574 Y101.451
G1 F600 X134.405 Y97.282 E0.24513
G1 F9000 X135.112 Y97.282
G1 F600 X138.574 Y100.744 E0.20355
G1 F9000 X138.574 Y100.037
G1 F600 X135.819 Y97.282 E0.16198
G1 F9000 X136.526 Y97.282
G1 F600 X138.574 Y99.330 E0.12042
G1 F9000 X138.574 Y98.623
G1 F600 X137.233 Y97.282 E0.07884
G1 F9000 X137.940 Y97.282
G1 F600 X138.574 Y97.915 E0.03725
G1 F9000 X139.133 Y103.424
G1 F600 X142.574 Y106.865 E0.20232
G1 F9000 X142.574 Y106.158
G1 F600 X139.840 Y103.424 E0.16074
G1 F9000 X140.548 Y103.424
G1 F600 X142.574 Y105.451 E0.11916
G1 F9000 X142.574 Y104.744
G1 F600 X141.255 Y103.424 E0.07758
G1 F9000 X141.962 Y103.424
G1 F600 X142.574 Y104.037 E0.03601
;LAYER:1
M106 S127
G1 F2400 E-4.50000
G1 F1800.000 E-4.0
G1 Z0.400
G1 F9000 X118.750 Y103.257 
G1 F1800.000 E4.0
;TYPE:WALL-INNER
G1 F2400 E4.50000
G1 F600 X118.008 Y104.214 E0.05035
G1 X117.471 Y104.996 E0.03943
G1 X117.045 Y105.613 E0.03118
G1 X116.991 Y105.704 E0.00440
G1 X116.250 Y105.695 E0.03081
G1 X116.250 Y111.907 E0.25826
G1 X103.750 Y111.907 E0.51969
G1 X103.750 Y105.726 E0.25698
G1 X103.018 Y105.717 E0.03043
G1 X102.605 Y105.083 E0.03146
G1 X102.501 Y104.956 E0.00682
G1 X101.993 Y104.215 E0.03736
G1 X101.471 Y103.554 E0.03501
G1 X101.250 Y103.256 E0.01543
G1 X101.250 Y97.179 E0.25265
G1 X118.750 Y97.180 E0.72757
G1 X118.750 Y103.257 E0.25265
G1 F9000 X113.073 Y103.000
G1 F600 X112.983 Y102.254 E0.03124
G1 X112.700 Y101.530 E0.03232
G1 X112.205 Y100.863 E0.03453
G1 X111.677 Y100.423 E0.02857
G1 X110.925 Y100.068 E0.03458
G1 X110.251 Y99.939 E0.02853
G1 X109.424 Y99.978 E0.03442
G1 X108.773 Y100.188 E0.02844
G1 X108.057 Y100.612 E0.03459
G1 X107.639 Y101.058 E0.02542
G1 X107.459 Y101.287 E0.01210
G1 X107.147 Y101.851 E0.02680
G1 X106.948 Y102.655 E0.03444
G1 X106.947 Y103.340 E0.02848
G1 X107.147 Y104.148 E0.03460
G1 X107.463 Y104.720 E0.02717
G1 X107.645 Y104.945 E0.01203
G1 X108.042 Y105.371 E0.02421
G1 X108.562 Y105.701 E0.02561
G1 X108.826 Y105.827 E0.01216
G1 X109.412 Y106.017 E0.02561
G1 X109.991 Y106.054 E0.02412
G1 X110.282 Y106.052 E0.01210
G1 X110.925 Y105.932 E0.02720
G1 X111.673 Y105.576 E0.03444
G1 X112.203 Y105.140 E0.02853
G1 X112.702 Y104.469 E0.03476
G1 X112.983 Y103.743 E0.03237
G1 X113.073 Y103.000 E0.03112
G1 F9000 X112.569 Y103.000
G1 F600 X112.494 Y102.377 E0.02608
G1 X112.259 Y101.774 E0.02691
G1 X111.839 Y101.209 E0.02927
G1 X111.406 Y100.848 E0.02344
G1 X110.769 Y100.547 E0.02929
G1 X110.215 Y100.442 E0.02344
G1 X109.514 Y100.475 E0.02918
G1 X108.980 Y100.647 E0.02332
G1 X108.373 Y101.006 E0.02932
G1 X108.018 Y101.384 E0.02156
G1 X107.877 Y101.564 E0.00951
G1 X107.617 Y102.035 E0.02236
G1 X107.448 Y102.717 E0.02922
G1 X107.447 Y103.280 E0.02340
G1 X107.617 Y103.964 E0.02931
G1 X107.879 Y104.440 E0.02259
G1 X108.364 Y104.984 E0.03030
G1 X108.804 Y105.263 E0.02166
G1 X109.011 Y105.361 E0.00952
G1 X109.507 Y105.522 E0.02168
G1 X110.005 Y105.554 E0.02075
G1 X110.233 Y105.552 E0.00948
G1 X110.769 Y105.452 E0.02266
G1 X111.403 Y105.151 E0.02918
G1 X111.838 Y104.793 E0.02343
G1 X112.261 Y104.225 E0.02944
G1 X112.494 Y103.621 E0.02691
G1 X112.569 Y103.000 E0.02601
G1 F9000 X116.750 Y106.201
G1 F600 X116.750 Y112.407 E0.25802
G1 X103.250 Y112.407 E0.56126
G1 X103.250 Y106.220 E0.25723
G1 X102.731 Y106.214 E0.02157
G1 X102.540 Y105.890 E0.01564
G1 X102.203 Y105.380 E0.02542
G1 X101.590 Y104.512 E0.04417
G1 X101.075 Y103.861 E0.03452
G1 X100.750 Y103.422 E0.02270
G1 X100.750 Y86.750 E0.69315
G1 X101.750 Y86.750 E0.04157
G1 X101.750 Y96.679 E0.41280
G1 X119.250 Y96.679 E0.72757
G1 X119.250 Y103.422 E0.28034
G1 X118.925 Y103.861 E0.02271
G1 X118.411 Y104.511 E0.03445
G1 X117.882 Y105.280 E0.03880
G1 X117.466 Y105.882 E0.03043
G1 X117.273 Y106.207 E0.01571
G1 X116.750 Y106.201 E0.02175
G1 F9000 X117.250 Y106.707
;TYPE:WALL-OUTER
G1 F600 X117.250 Y112.907 E0.25776
G1 X102.750 Y112.907 E0.60284
G1 X102.750 Y106.714 E0.25748
G1 X102.443 Y106.710 E0.01276
G1 X102.116 Y106.155 E0.02678
G1 X101.800 Y105.678 E0.02379
G1 X101.187 Y104.809 E0.04421
G1 X100.673 Y104.158 E0.03449
G1 X100.250 Y103.586 E0.02958
G1 X100.250 Y86.250 E0.72074
G1 X102.250 Y86.250 E0.08315
G1 X102.250 Y96.179 E0.41280
G1 X119.750 Y96.179 E0.72757
G1 X119.750 Y103.586 E0.30795
G1 X119.331 Y104.153 E0.02931
G1 X118.814 Y104.808 E0.03469
G1 X117.887 Y106.152 E0.06788
G1 X117.557 Y106.711 E0.02699
G1 X117.250 Y106.707 E0.01276
G1 F9000 X117.254 Y106.358
G1 X112.099 Y104.190
G1 X111.819 Y103.981
G1 F600 X112.005 Y103.499 E0.02148
G1 X112.066 Y103.000 E0.02090
G1 X112.005 Y102.500 E0.02094
G1 X111.818 Y102.019 E0.02146
G1 X111.473 Y101.555 E0.02404
G1 X111.135 Y101.273 E0.01830
G1 X110.613 Y101.026 E0.02401
G1 X110.180 Y100.944 E0.01832
G1 X109.604 Y100.971 E0.02397
G1 X109.187 Y101.106 E0.01823
G1 X108.689 Y101.400 E0.02404
G1 X108.295 Y101.841 E0.02459
G1 X108.086 Y102.219 E0.01795
G1 X107.948 Y102.778 E0.02394
G1 X107.947 Y103.219 E0.01834
G1 X108.086 Y103.780 E0.02403
G1 X108.296 Y104.160 E0.01805
G1 X108.686 Y104.596 E0.02432
G1 X109.046 Y104.824 E0.01771
G1 X109.196 Y104.896 E0.00692
G1 X109.602 Y105.027 E0.01774
G1 X110.019 Y105.054 E0.01737
G1 X110.185 Y105.053 E0.00690
G1 X110.613 Y104.973 E0.01810
G1 X111.133 Y104.726 E0.02394
G1 X111.473 Y104.446 E0.01831
G1 X111.819 Y103.981 E0.02410
G1 F9000 X112.786 Y104.648
;TYPE:SKIN
G1 F1140 X118.574 Y98.861 E0.34028
G1 F9000 X118.574 Y99.568
G1 F1140 X106.410 Y111.732 E0.71520
G1 F9000 X107.117 Y111.732
G1 F1140 X118.574 Y100.275 E0.67363
G1 F9000 X118.574 Y100.982
G1 F1140 X107.824 Y111.732 E0.63205
G1 F9000 X108.531 Y111.732
G1 F1140 X118.574 Y101.689 E0.59049
G1 F9000 X118.574 Y102.396
G1 F1140 X109.238 Y111.732 E0.54892
G1 F9000 X109.945 Y111.732
G1 F1140 X116.073 Y105.604 E0.36031
G1 F9000 X116.158 Y105.519
G1 F1140 X118.574 Y103.103 E0.14205
G1 F9000 X116.962 Y105.422
G1 F1140 X116.857 Y105.527 E0.00617
G1 F9000 X116.073 Y106.311
G1 F1140 X110.653 Y111.732 E0.31871
G1 F9000 X111.360 Y111.732
G1 F1140 X116.073 Y107.018 E0.27713
G1 F9000 X116.073 Y107.725
G1 F1140 X112.067 Y111.732 E0.23557
G1 F9000 X112.774 Y111.732
G1 F1140 X116.073 Y108.432 E0.19400
G1 F9000 X116.073 Y109.139
G1 F1140 X113.481 Y111.732 E0.15243
G1 F9000 X114.188 Y111.732
G1 F1140 X116.073 Y109.846 E0.11086
G1 F9000 X116.073 Y110.554
G1 F1140 X114.895 Y111.732 E0.06926
G1 F9000 X115.602 Y111.732
G1 F1140 X116.073 Y111.261 E0.02769
G1 F9000 X111.659 Y105.776
G1 F1140 X105.703 Y111.732 E0.35019
G1 F9000 X104.996 Y111.732
G1 F1140 X110.548 Y106.179 E0.32647
G1 F9000 X109.804 Y106.216
G1 F1140 X104.289 Y111.732 E0.32429
G1 F9000 X103.924 Y111.389
G1 F1140 X109.186 Y106.127 E0.30938
G1 F9000 X108.663 Y105.942
G1 F1140 X103.924 Y110.682 E0.27867
G1 F9000 X103.924 Y109.974
G1 F1140 X108.212 Y105.687 E0.25209
G1 F9000 X107.811 Y105.381
G1 F1140 X103.924 Y109.267 E0.22851
G1 F9000 X103.924 Y108.560
G1 F1140 X107.473 Y105.012 E0.20864
G1 F9000 X107.189 Y104.588
G1 F1140 X103.924 Y107.853 E0.19197
G1 F9000 X103.924 Y107.146
G1 F1140 X106.957 Y104.113 E0.17832
G1 F9000 X106.816 Y103.547
G1 F1140 X103.924 Y106.439 E0.17004
G1 F9000 X103.924 Y105.732
G1 F1140 X106.771 Y102.885 E0.16740
G1 F9000 X106.922 Y102.027
G1 F1140 X103.403 Y105.547 E0.20693
G1 F9000 X102.951 Y105.291
G1 F1140 X110.888 Y97.354 E0.46666
G1 F9000 X111.595 Y97.354
G1 F1140 X109.027 Y99.922 E0.15099
G1 F9000 X109.875 Y99.781
G1 F1140 X112.302 Y97.354 E0.14270
G1 F9000 X113.009 Y97.354
G1 F1140 X110.546 Y99.818 E0.14485
G1 F9000 X111.109 Y99.962
G1 F1140 X113.716 Y97.354 E0.15331
G1 F9000 X114.424 Y97.354
G1 F1140 X111.589 Y100.189 E0.16668
G1 F9000 X112.010 Y100.474
G1 F1140 X115.131 Y97.354 E0.18348
G1 F9000 X115.838 Y97.354
G1 F1140 X112.383 Y100.809 E0.20314
G1 F9000 X112.684 Y101.215
G1 F1140 X116.545 Y97.354 E0.22701
G1 F9000 X117.252 Y97.354
G1 F1140 X112.941 Y101.665 E0.25347
G1 F9000 X113.139 Y102.174
G1 F1140 X117.959 Y97.354 E0.28340
G1 F9000 X118.574 Y97.447
G1 F1140 X113.224 Y102.796 E0.31453
G1 F9000 X113.183 Y103.545
G1 F1140 X118.574 Y98.154 E0.31697
G1 F9000 X110.181 Y97.354
G1 F1140 X102.661 Y104.874 E0.44214
G1 F9000 X102.372 Y104.456
G1 F1140 X109.474 Y97.353 E0.41760
G1 F9000 X108.767 Y97.353
G1 F1140 X102.080 Y104.041 E0.39320
G1 F9000 X101.768 Y103.646
G1 F1140 X108.060 Y97.353 E0.36998
G1 F9000 X107.353 Y97.353
G1 F1140 X101.461 Y103.246 E0.34646
G1 F9000 X101.425 Y102.575
G1 F1140 X106.646 Y97.353 E0.30700
G1 F9000 X105.939 Y97.353
G1 F1140 X101.425 Y101.867 E0.26541
G1 F9000 X101.425 Y101.160
G1 F1140 X105.232 Y97.353 E0.22383
G1 F9000 X104.525 Y97.353
G1 F1140 X101.425 Y100.453 E0.18227
G1 F9000 X101.424 Y99.747
G1 F1140 X103.818 Y97.353 E0.14076
G1 F9000 X103.111 Y97.353
G1 F1140 X101.424 Y99.040 E0.09919
G1 F9000 X101.424 Y98.333
G1 F1140 X102.403 Y97.353 E0.05759
G1 F9000 X101.696 Y97.353
G1 F1140 X101.424 Y97.625 E0.01599
G1 F2400 E-4.50000
G1 F9000 X125.250 Y103.250
;TYPE:WALL-INNER
G1 F2400 E4.50000
G1 F600 X129.250 Y103.250 E0.16630
G1 X129.250 Y97.180 E0.25236
G1 X138.750 Y97.180 E0.39497
G1 X138.750 Y103.250 E0.25236
G1 X142.750 Y103.250 E0.16630
G1 X142.750 Y112.750 E0.39496
G1 X125.250 Y112.750 E0.72757
G1 X125.250 Y103.250 E0.39496
G1 F9000 X131.339 Y107.262
G1 F600 X131.046 Y107.791 E0.02514
G1 X130.830 Y108.680 E0.03804
G1 X130.829 Y109.317 E0.02648
G1 X131.046 Y110.206 E0.03805
G1 X131.353 Y110.765 E0.02651
G1 X131.955 Y111.453 E0.03801
G1 X132.454 Y111.769 E0.02456
G1 X132.832 Y111.950 E0.01742
G1 X133.379 Y112.128 E0.02392
G1 X133.913 Y112.163 E0.02225
G1 X134.332 Y112.162 E0.01742
G1 X134.937 Y112.049 E0.02558
G1 X135.762 Y111.654 E0.03803
G1 X136.253 Y111.250 E0.02644
G1 X136.810 Y110.513 E0.03840
G1 X137.099 Y109.756 E0.03369
G1 X137.189 Y109.000 E0.03166
G1 X137.099 Y108.242 E0.03173
G1 X136.808 Y107.486 E0.03368
G1 X136.255 Y106.755 E0.03811
G1 X135.767 Y106.346 E0.02647
G1 X134.938 Y105.951 E0.03818
G1 X134.310 Y105.832 E0.02657
G1 X133.398 Y105.865 E0.03794
G1 X132.830 Y106.049 E0.02483
G1 X132.454 Y106.232 E0.01738
G1 X131.977 Y106.531 E0.02341
G1 X131.598 Y106.933 E0.02297
G1 X131.339 Y107.262 E0.01740
G1 F9000 X131.977 Y107.260
G1 F600 X131.757 Y107.540 E0.01481
G1 X131.516 Y107.975 E0.02067
G1 X131.330 Y108.740 E0.03274
G1 X131.329 Y109.257 E0.02149
G1 X131.516 Y110.023 E0.03278
G1 X131.765 Y110.477 E0.02153
G1 X132.284 Y111.070 E0.03276
G1 X132.697 Y111.331 E0.02031
G1 X133.018 Y111.485 E0.01481
G1 X133.474 Y111.633 E0.01993
G1 X133.929 Y111.663 E0.01896
G1 X134.285 Y111.662 E0.01480
G1 X134.781 Y111.569 E0.02098
G1 X135.491 Y111.229 E0.03273
G1 X135.890 Y110.901 E0.02147
G1 X136.369 Y110.268 E0.03300
G1 X136.610 Y109.635 E0.02816
G1 X136.685 Y109.000 E0.02659
G1 X136.610 Y108.363 E0.02666
G1 X136.367 Y107.731 E0.02815
G1 X135.891 Y107.102 E0.03280
G1 X135.494 Y106.770 E0.02151
G1 X134.781 Y106.430 E0.03285
G1 X134.272 Y106.333 E0.02154
G1 X133.486 Y106.362 E0.03270
G1 X133.017 Y106.514 E0.02050
G1 X132.697 Y106.669 E0.01478
G1 X132.297 Y106.921 E0.01965
G1 X131.977 Y107.260 E0.01939
G1 F9000 X128.750 Y102.750
G1 F600 X128.750 Y96.680 E0.25236
G1 X139.250 Y96.680 E0.43654
G1 X139.250 Y102.750 E0.25236
G1 X142.750 Y102.750 E0.14551
G1 X142.750 Y90.966 E0.48992
G1 X143.250 Y90.965 E0.02079
G1 X143.250 Y113.250 E0.92650
G1 X124.750 Y113.250 E0.76914
G1 X124.750 Y90.966 E0.92646
G1 X125.250 Y90.965 E0.02079
G1 X125.250 Y102.750 E0.48996
G1 X128.750 Y102.750 E0.14552
G1 F9000 X128.250 Y102.250
;TYPE:WALL-OUTER
G1 F600 X128.250 Y96.180 E0.25236
G1 X139.750 Y96.180 E0.47811
G1 X139.750 Y102.250 E0.25236
G1 X142.250 Y102.250 E0.10394
G1 X142.250 Y90.466 E0.48992
G1 X143.750 Y90.465 E0.06237
G1 X143.750 Y113.750 E0.96808
G1 X124.250 Y113.750 E0.81071
G1 X124.250 Y90.466 E0.96804
G1 X125.750 Y90.465 E0.06236
G1 X125.750 Y102.250 E0.48996
G1 X128.250 Y102.250 E0.10394
G1 F9000 X128.250 Y102.600
G1 X132.431 Y107.015
G1 X132.617 Y107.310
G1 F600 X132.356 Y107.587 E0.01582
G1 X132.175 Y107.817 E0.01217
G1 X131.986 Y108.158 E0.01621
G1 X131.830 Y108.801 E0.02751
G1 X131.829 Y109.198 E0.01651
G1 X131.986 Y109.840 E0.02747
G1 X132.177 Y110.188 E0.01651
G1 X132.613 Y110.686 E0.02752
G1 X132.940 Y110.893 E0.01609
G1 X133.204 Y111.020 E0.01218
G1 X133.569 Y111.138 E0.01594
G1 X133.944 Y111.163 E0.01563
G1 X134.238 Y111.162 E0.01222
G1 X134.624 Y111.090 E0.01633
G1 X135.220 Y110.804 E0.02748
G1 X135.527 Y110.552 E0.01651
G1 X135.927 Y110.023 E0.02758
G1 X136.121 Y109.515 E0.02260
G1 X136.182 Y109.000 E0.02157
G1 X136.121 Y108.484 E0.02160
G1 X135.926 Y107.976 E0.02262
G1 X135.526 Y107.449 E0.02751
G1 X135.222 Y107.194 E0.01649
G1 X134.624 Y106.909 E0.02754
G1 X134.234 Y106.835 E0.01651
G1 X133.573 Y106.859 E0.02750
G1 X133.204 Y106.979 E0.01613
G1 X132.940 Y107.107 E0.01220
G1 X132.617 Y107.310 E0.01586
G1 F9000 X132.760 Y105.887
;TYPE:SKIN
G1 F1140 X138.573 Y100.074 E0.34178
G1 F9000 X138.573 Y100.781
G1 F1140 X133.675 Y105.679 E0.28798
G1 F9000 X134.392 Y105.670
G1 F1140 X138.573 Y101.488 E0.24586
G1 F9000 X138.573 Y102.196
G1 F1140 X134.987 Y105.782 E0.21084
G1 F9000 X135.466 Y106.010
G1 F1140 X138.573 Y102.903 E0.18268
G1 F9000 X138.759 Y103.424
G1 F1140 X135.929 Y106.254 E0.16640
G1 F9000 X136.313 Y106.577
G1 F1140 X139.466 Y103.424 E0.18538
G1 F9000 X140.173 Y103.424
G1 F1140 X136.633 Y106.964 E0.20814
G1 F9000 X136.938 Y107.367
G1 F1140 X140.880 Y103.424 E0.23180
G1 F9000 X141.587 Y103.424
G1 F1140 X137.143 Y107.869 E0.26132
G1 F9000 X137.296 Y108.422
G1 F1140 X142.294 Y103.424 E0.29387
G1 F9000 X142.574 Y103.852
G1 F1140 X137.357 Y109.069 E0.30673
G1 F9000 X137.228 Y109.905
G1 F1140 X142.574 Y104.559 E0.31433
G1 F9000 X142.574 Y105.266
G1 F1140 X135.265 Y112.574 E0.42971
G1 F9000 X134.899 Y112.234
G1 F1140 X134.323 Y112.455 E0.02001
G1 X133.633 Y112.439 E0.01389
G1 X133.005 Y112.359 E0.01584
G1 X132.407 Y112.250 E0.02522
G1 X131.730 Y112.574 E0.03121
G1 F9000 X131.023 Y112.574
G1 F1140 X131.944 Y111.653 E0.05415
G1 F9000 X131.589 Y111.302
G1 F1140 X130.316 Y112.574 E0.07481
G1 F9000 X129.609 Y112.574
G1 F1140 X131.258 Y110.925 E0.09696
G1 F9000 X130.996 Y110.480
G1 F1140 X128.902 Y112.574 E0.12312
G1 F9000 X128.194 Y112.574
G1 F1140 X130.806 Y109.963 E0.15354
G1 F9000 X130.667 Y109.395
G1 F1140 X127.487 Y112.574 E0.18695
G1 F9000 X126.780 Y112.574
G1 F1140 X130.653 Y108.702 E0.22769
G1 F9000 X130.868 Y107.780
G1 F1140 X126.073 Y112.574 E0.28189
G1 F9000 X125.424 Y112.516
G1 F1140 X138.573 Y99.367 E0.77311
G1 F9000 X138.573 Y98.660
G1 F1140 X125.424 Y111.809 E0.77312
G1 F9000 X125.424 Y111.102
G1 F1140 X138.573 Y97.953 E0.77311
G1 F9000 X138.464 Y97.355
G1 F1140 X125.424 Y110.395 E0.76670
G1 F9000 X125.424 Y109.688
G1 F1140 X137.757 Y97.355 E0.72513
G1 F9000 X137.050 Y97.355
G1 F1140 X125.424 Y108.981 E0.68357
G1 F9000 X125.424 Y108.274
G1 F1140 X136.343 Y97.355 E0.64199
G1 F9000 X135.636 Y97.355
G1 F1140 X125.424 Y107.567 E0.60043
G1 F9000 X125.424 Y106.860
G1 F1140 X128.859 Y103.424 E0.20199
G1 F9000 X128.152 Y103.424
G1 F1140 X125.424 Y106.152 E0.16040
G1 F9000 X125.424 Y105.445
G1 F1140 X127.445 Y103.424 E0.11882
G1 F9000 X126.738 Y103.424
G1 F1140 X125.424 Y104.738 E0.07726
G1 F9000 X125.424 Y104.031
G1 F1140 X126.031 Y103.424 E0.03569
G1 F9000 X129.423 Y102.860
G1 F1140 X134.929 Y97.355 E0.32370
G1 F9000 X134.222 Y97.355
G1 F1140 X129.423 Y102.153 E0.28214
G1 F9000 X129.423 Y101.446
G1 F1140 X133.515 Y97.355 E0.24056
G1 F9000 X132.808 Y97.355
G1 F1140 X129.423 Y100.739 E0.19900
G1 F9000 X129.423 Y100.032
G1 F1140 X132.100 Y97.355 E0.15740
G1 F9000 X131.393 Y97.355
G1 F1140 X129.423 Y99.325 E0.11582
G1 F9000 X129.423 Y98.618
G1 F1140 X130.686 Y97.355 E0.07426
G1 F9000 X129.979 Y97.355
G1 F1140 X129.423 Y97.910 E0.03266
G1 F9000 X142.574 Y105.973
G1 F1140 X135.973 Y112.574 E0.38812
G1 F9000 X136.680 Y112.574
G1 F1140 X142.574 Y106.680 E0.34654
G1 F9000 X142.574 Y107.387
G1 F1140 X137.387 Y112.574 E0.30498
G1 F9000 X138.094 Y112.574
G1 F1140 X142.574 Y108.094 E0.26341
G1 F9000 X142.574 Y108.801
G1 F1140 X138.801 Y112.574 E0.22183
G1 F9000 X139.508 Y112.574
G1 F1140 X142.574 Y109.508 E0.18027
G1 F9000 X142.574 Y110.216
G1 F1140 X140.215 Y112.574 E0.13867
G1 F9000 X140.922 Y112.574
G1 F1140 X142.574 Y110.923 E0.09710
G1 F9000 X142.574 Y111.630
G1 F1140 X141.629 Y112.574 E0.05554
G1 F9000 X142.337 Y112.574
G1 F1140 X142.574 Y112.337 E0.01393
;LAYER:2
M106 S255
G1 F2400 E-4.50000
G1 F1800.000 E-4.0
G1 Z0.600
G1 F9000 X118.750 Y103.107 
G1 F1800.000 E4.0
;TYPE:WALL-INNER
G1 F2400 E4.50000
G1 F720 X117.833 Y104.273 E0.06167
G1 X117.388 Y104.919 E0.03262
G1 X117.221 Y105.123 E0.01096
G1 X117.022 Y105.424 E0.01500
G1 X116.262 Y105.428 E0.03160
G1 X116.250 Y107.620 E0.09113
G1 X116.250 Y112.107 E0.18655
G1 X103.750 Y112.107 E0.51969
G1 X103.750 Y105.422 E0.27793
G1 X102.976 Y105.422 E0.03218
G1 X102.778 Y105.121 E0.01498
G1 X102.168 Y104.275 E0.04336
G1 X101.305 Y103.182 E0.05790
G1 X101.250 Y103.107 E0.00387
G1 X101.250 Y97.249 E0.24354
G1 X103.124 Y97.252 E0.07791
G1 X118.750 Y97.251 E0.64966
G1 X118.750 Y103.107 E0.24346
G1 F9000 X113.302 Y103.000
G1 F720 X113.216 Y102.234 E0.03205
G1 X112.919 Y101.445 E0.03505
G1 X112.301 Y100.639 E0.04223
G1 X111.854 Y100.268 E0.02415
G1 X110.947 Y99.836 E0.04176
G1 X110.378 Y99.726 E0.02410
G1 X109.370 Y99.752 E0.04192
G1 X108.849 Y99.923 E0.02280
G1 X108.344 Y100.166 E0.02330
G1 X107.881 Y100.457 E0.02273
G1 X107.228 Y101.224 E0.04188
G1 X106.948 Y101.732 E0.02412
G1 X106.716 Y102.708 E0.04171
G1 X106.713 Y103.288 E0.02411
G1 X106.949 Y104.266 E0.04183
G1 X107.228 Y104.775 E0.02413
G1 X107.881 Y105.541 E0.04185
G1 X108.342 Y105.833 E0.02269
G1 X108.848 Y106.077 E0.02335
G1 X109.348 Y106.239 E0.02185
G1 X109.830 Y106.270 E0.02008
G1 X110.392 Y106.269 E0.02337
G1 X110.945 Y106.164 E0.02340
G1 X111.851 Y105.731 E0.04175
G1 X112.300 Y105.362 E0.02416
G1 X112.919 Y104.554 E0.04232
G1 X113.216 Y103.764 E0.03509
G1 X113.302 Y103.000 E0.03196
G1 F9000 X112.799 Y103.000
G1 F720 X112.726 Y102.352 E0.02711
G1 X112.477 Y101.691 E0.02937
G1 X111.938 Y100.988 E0.03683
G1 X111.582 Y100.692 E0.01925
G1 X110.789 Y100.315 E0.03650
G1 X110.336 Y100.227 E0.01919
G1 X109.456 Y100.250 E0.03659
G1 X109.036 Y100.388 E0.01838
G1 X108.586 Y100.604 E0.02076
G1 X108.212 Y100.840 E0.01838
G1 X107.642 Y101.510 E0.03658
G1 X107.419 Y101.914 E0.01918
G1 X107.215 Y102.767 E0.03646
G1 X107.214 Y103.230 E0.01925
G1 X107.419 Y104.085 E0.03656
G1 X107.641 Y104.490 E0.01920
G1 X108.212 Y105.159 E0.03657
G1 X108.585 Y105.395 E0.01835
G1 X109.035 Y105.612 E0.02077
G1 X109.443 Y105.744 E0.01783
G1 X109.845 Y105.770 E0.01674
G1 X110.344 Y105.769 E0.02075
G1 X110.788 Y105.685 E0.01879
G1 X111.581 Y105.306 E0.03654
G1 X111.938 Y105.012 E0.01923
G1 X112.477 Y104.309 E0.03683
G1 X112.726 Y103.647 E0.02940
G1 X112.799 Y103.000 E0.02707
G1 F9000 X116.759 Y105.926
G1 F720 X116.750 Y107.621 E0.07047
G1 X116.750 Y112.607 E0.20730
G1 X103.250 Y112.607 E0.56126
G1 X103.250 Y105.922 E0.27793
G1 X102.706 Y105.922 E0.02262
G1 X102.375 Y105.419 E0.02503
G1 X102.208 Y105.217 E0.01090
G1 X101.765 Y104.571 E0.03256
G1 X100.896 Y103.469 E0.05835
G1 X100.750 Y103.272 E0.01019
G1 X100.750 Y86.750 E0.68691
G1 X101.750 Y86.750 E0.04158
G1 X101.750 Y96.750 E0.41575
G1 X103.124 Y96.752 E0.05712
G1 X119.250 Y96.751 E0.67044
G1 X119.250 Y103.272 E0.27111
G1 X118.236 Y104.570 E0.06848
G1 X117.790 Y105.218 E0.03271
G1 X117.624 Y105.420 E0.01087
G1 X117.292 Y105.923 E0.02506
G1 X116.759 Y105.926 E0.02216
G1 F9000 X117.256 Y106.423
;TYPE:WALL-OUTER
G1 F720 X117.250 Y107.622 E0.04984
G1 X117.250 Y113.107 E0.22804
G1 X102.750 Y113.107 E0.60284
G1 X102.750 Y106.422 E0.27793
G1 X102.436 Y106.422 E0.01306
G1 X101.972 Y105.716 E0.03512
G1 X101.804 Y105.513 E0.01096
G1 X101.362 Y104.868 E0.03251
G1 X100.507 Y103.784 E0.05740
G1 X100.250 Y103.436 E0.01798
G1 X100.250 Y86.250 E0.71451
G1 X102.250 Y86.250 E0.08315
G1 X102.250 Y96.251 E0.41580
G1 X119.750 Y96.251 E0.72756
G1 X119.750 Y103.436 E0.29872
G1 X118.639 Y104.867 E0.07532
G1 X118.187 Y105.523 E0.03312
G1 X118.027 Y105.717 E0.01045
G1 X117.563 Y106.422 E0.03509
G1 X117.256 Y106.423 E0.01277
G1 F9000 X116.907 Y106.421
G1 X112.361 Y104.188
G1 X112.035 Y104.064
G1 F720 X112.236 Y103.529 E0.02376
G1 X112.296 Y103.000 E0.02213
G1 X112.236 Y102.470 E0.02218
G1 X112.035 Y101.936 E0.02372
G1 X111.575 Y101.337 E0.03140
G1 X111.311 Y101.117 E0.01429
G1 X110.632 Y100.794 E0.03126
G1 X110.295 Y100.728 E0.01427
G1 X109.542 Y100.748 E0.03132
G1 X109.223 Y100.853 E0.01396
G1 X108.829 Y101.042 E0.01817
G1 X108.543 Y101.222 E0.01405
G1 X108.055 Y101.795 E0.03129
G1 X107.890 Y102.096 E0.01427
G1 X107.715 Y102.827 E0.03125
G1 X107.714 Y103.171 E0.01430
G1 X107.890 Y103.903 E0.03131
G1 X108.055 Y104.205 E0.01430
G1 X108.543 Y104.777 E0.03126
G1 X108.828 Y104.957 E0.01402
G1 X109.222 Y105.147 E0.01818
G1 X109.538 Y105.249 E0.01381
G1 X109.860 Y105.270 E0.01341
G1 X110.297 Y105.269 E0.01817
G1 X110.631 Y105.206 E0.01413
G1 X111.310 Y104.881 E0.03130
G1 X111.576 Y104.663 E0.01430
G1 X112.035 Y104.064 E0.03137
G1 F9000 X112.941 Y104.809
;TYPE:SKIN
G1 F1800 X116.082 Y107.950 E0.18468
G1 F9000 X116.083 Y107.244
G1 F1800 X113.183 Y104.344 E0.17051
G1 F9000 X113.377 Y103.831
G1 F1800 X116.085 Y106.539 E0.15922
G1 F9000 X116.086 Y105.833
G1 F1800 X113.454 Y103.201 E0.15475
G1 F9000 X113.415 Y102.455
G1 F1800 X116.213 Y105.253 E0.16451
G1 F9000 X116.917 Y105.250
G1 F1800 X113.101 Y101.433 E0.22440
G1 F9000 X112.634 Y105.209
G1 F1800 X116.080 Y108.656 E0.20264
G1 F9000 X116.079 Y109.361
G1 F1800 X112.302 Y105.585 E0.22204
G1 F9000 X111.907 Y105.897
G1 F1800 X116.078 Y110.068 E0.24524
G1 F9000 X116.077 Y110.773
G1 F1800 X111.429 Y106.126 E0.27326
G1 F9000 X110.940 Y106.343
G1 F1800 X116.075 Y111.479 E0.30194
G1 F9000 X115.820 Y111.931
G1 F1800 X110.333 Y106.444 E0.32262
G1 F9000 X109.612 Y106.430
G1 F1800 X115.113 Y111.931 E0.32344
G1 F9000 X114.406 Y111.931
G1 F1800 X108.651 Y106.176 E0.33837
G1 F9000 X106.777 Y104.302
G1 F1800 X101.424 Y98.949 E0.31473
G1 F9000 X101.424 Y99.656
G1 F1800 X113.699 Y111.931 E0.72173
G1 F9000 X112.992 Y111.931
G1 F1800 X101.424 Y100.363 E0.68015
G1 F9000 X101.424 Y101.071
G1 F1800 X112.285 Y111.931 E0.63856
G1 F9000 X111.577 Y111.931
G1 F1800 X101.424 Y101.778 E0.59696
G1 F9000 X101.424 Y102.485
G1 F1800 X110.870 Y111.931 E0.55538
G1 F9000 X110.163 Y111.931
G1 F1800 X103.924 Y105.692 E0.36683
G1 F9000 X103.478 Y105.245
G1 F1800 X101.961 Y103.729 E0.08917
G1 F9000 X103.924 Y106.399
G1 F1800 X109.455 Y111.930 E0.32520
G1 F9000 X108.748 Y111.930
G1 F1800 X103.924 Y107.106 E0.28363
G1 F9000 X103.924 Y107.813
G1 F1800 X108.041 Y111.930 E0.24207
G1 F9000 X107.334 Y111.930
G1 F1800 X103.924 Y108.521 E0.20046
G1 F9000 X103.924 Y109.228
G1 F1800 X106.627 Y111.930 E0.15890
G1 F9000 X105.920 Y111.930
G1 F1800 X103.924 Y109.935 E0.11733
G1 F9000 X103.924 Y110.642
G1 F1800 X105.213 Y111.930 E0.07575
G1 F9000 X104.506 Y111.930
G1 F1800 X103.924 Y111.349 E0.03419
G1 F9000 X106.552 Y103.370
G1 F1800 X101.424 Y98.242 E0.30151
G1 F9000 X101.424 Y97.535
G1 F1800 X106.547 Y102.658 E0.30121
G1 F9000 X106.683 Y102.087
G1 F1800 X102.020 Y97.424 E0.27417
G1 F9000 X102.727 Y97.424
G1 F1800 X106.850 Y101.546 E0.24239
G1 F9000 X107.106 Y101.096
G1 F1800 X103.434 Y97.424 E0.21590
G1 F9000 X104.141 Y97.424
G1 F1800 X107.432 Y100.714 E0.19347
G1 F9000 X107.758 Y100.333
G1 F1800 X104.849 Y97.424 E0.17103
G1 F9000 X105.556 Y97.424
G1 F1800 X108.188 Y100.056 E0.15476
G1 F9000 X109.799 Y97.425
G1 F1800 X117.221 Y104.846 E0.43635
G1 F9000 X117.512 Y104.431
G1 F1800 X110.506 Y97.425 E0.41193
G1 F9000 X111.213 Y97.425
G1 F1800 X117.809 Y104.021 E0.38782
G1 F9000 X118.120 Y103.625
G1 F1800 X111.920 Y97.425 E0.36453
G1 F9000 X112.627 Y97.425
G1 F1800 X118.431 Y103.228 E0.34123
G1 F9000 X118.574 Y102.664
G1 F1800 X113.335 Y97.425 E0.30803
G1 F9000 X114.042 Y97.425
G1 F1800 X118.574 Y101.957 E0.26646
G1 F9000 X118.574 Y101.249
G1 F1800 X114.749 Y97.425 E0.22487
G1 F9000 X115.457 Y97.425
G1 F1800 X118.574 Y100.542 E0.18327
G1 F9000 X118.574 Y99.835
G1 F1800 X116.164 Y97.425 E0.14170
G1 F9000 X116.871 Y97.425
G1 F1800 X118.574 Y99.128 E0.10013
G1 F9000 X118.574 Y98.421
G1 F1800 X117.578 Y97.425 E0.05856
G1 F9000 X118.285 Y97.425
G1 F1800 X118.574 Y97.714 E0.01699
G1 F9000 X111.640 Y99.972
G1 F1800 X109.092 Y97.425 E0.14978
G1 F9000 X108.385 Y97.425
G1 F1800 X110.538 Y99.578 E0.12659
G1 F9000 X109.817 Y99.564
G1 F1800 X107.678 Y97.425 E0.12577
G1 F9000 X106.970 Y97.424
G1 F1800 X109.176 Y99.630 E0.12970
G1 F9000 X108.658 Y99.820
G1 F1800 X106.263 Y97.424 E0.14085
G1 F2400 E-4.50000
G1 F9000 X125.250 Y103.250
;TYPE:WALL-INNER
G1 F2400 E4.50000
G1 F720 X129.250 Y103.250 E0.16630
G1 X129.250 Y97.252 E0.24936
G1 X138.750 Y97.252 E0.39497
G1 X138.750 Y103.250 E0.24937
G1 X142.750 Y103.250 E0.16630
G1 X142.750 Y112.750 E0.39496
G1 X125.250 Y112.750 E0.72757
G1 X125.250 Y103.250 E0.39496
G1 F9000 X131.101 Y107.215
G1 F720 X130.847 Y107.671 E0.02170
G1 X130.598 Y108.728 E0.04515
G1 X130.595 Y109.263 E0.02224
G1 X130.749 Y109.926 E0.02830
G1 X130.851 Y110.332 E0.01741
G1 X131.099 Y110.785 E0.02147
G1 X131.524 Y111.316 E0.02827
G1 X131.833 Y111.648 E0.01886
G1 X132.238 Y111.905 E0.01994
G1 X132.853 Y112.200 E0.02836
G1 X133.317 Y112.350 E0.02027
G1 X133.760 Y112.379 E0.01846
G1 X134.439 Y112.378 E0.02823
G1 X134.957 Y112.282 E0.02190
G1 X135.937 Y111.812 E0.04519
G1 X136.348 Y111.474 E0.02212
G1 X136.770 Y110.941 E0.02827
G1 X137.034 Y110.581 E0.01856
G1 X137.330 Y109.777 E0.03562
G1 X137.418 Y109.000 E0.03251
G1 X137.330 Y108.220 E0.03263
G1 X137.027 Y107.402 E0.03627
G1 X136.357 Y106.537 E0.04549
G1 X135.944 Y106.189 E0.02245
G1 X135.327 Y105.894 E0.02843
G1 X134.957 Y105.718 E0.01704
G1 X134.441 Y105.620 E0.02183
G1 X133.761 Y105.621 E0.02828
G1 X133.321 Y105.648 E0.01832
G1 X132.853 Y105.798 E0.02044
G1 X132.240 Y106.095 E0.02831
G1 X131.839 Y106.347 E0.01970
G1 X131.522 Y106.682 E0.01917
G1 X131.101 Y107.215 E0.02824
G1 F9000 X131.518 Y107.494
G1 F720 X131.318 Y107.854 E0.01712
G1 X131.097 Y108.787 E0.03986
G1 X131.096 Y109.207 E0.01746
G1 X131.235 Y109.809 E0.02569
G1 X131.320 Y110.148 E0.01453
G1 X131.517 Y110.507 E0.01703
G1 X131.902 Y110.989 E0.02564
G1 X132.155 Y111.260 E0.01542
G1 X132.481 Y111.467 E0.01605
G1 X133.039 Y111.735 E0.02574
G1 X133.411 Y111.855 E0.01625
G1 X133.775 Y111.879 E0.01517
G1 X134.393 Y111.878 E0.02569
G1 X134.801 Y111.802 E0.01725
G1 X135.666 Y111.387 E0.03989
G1 X135.989 Y111.122 E0.01737
G1 X136.372 Y110.638 E0.02566
G1 X136.589 Y110.342 E0.01526
G1 X136.840 Y109.661 E0.03017
G1 X136.915 Y109.000 E0.02766
G1 X136.840 Y108.337 E0.02774
G1 X136.584 Y107.648 E0.03056
G1 X135.994 Y106.885 E0.04010
G1 X135.671 Y106.613 E0.01756
G1 X135.112 Y106.345 E0.02577
G1 X134.801 Y106.197 E0.01432
G1 X134.394 Y106.120 E0.01722
G1 X133.777 Y106.121 E0.02565
G1 X133.414 Y106.143 E0.01512
G1 X133.039 Y106.263 E0.01637
G1 X132.483 Y106.533 E0.02570
G1 X132.158 Y106.736 E0.01593
G1 X131.518 Y107.494 E0.04124
G1 F9000 X128.750 Y102.750
G1 F720 X128.750 Y96.752 E0.24937
G1 X139.250 Y96.752 E0.43654
G1 X139.250 Y102.750 E0.24937
G1 X142.750 Y102.750 E0.14551
G1 X142.750 Y90.483 E0.51001
G1 X143.250 Y90.482 E0.02078
G1 X143.250 Y113.250 E0.94659
G1 X124.750 Y113.250 E0.76914
G1 X124.750 Y90.483 E0.94654
G1 X125.250 Y90.482 E0.02079
G1 X125.250 Y102.750 E0.51004
G1 X128.750 Y102.750 E0.14551
G1 F9000 X128.250 Y102.250
;TYPE:WALL-OUTER
G1 F720 X128.250 Y96.252 E0.24937
G1 X139.750 Y96.251 E0.47812
G1 X139.750 Y102.250 E0.24941
G1 X142.250 Y102.250 E0.10393
G1 X142.250 Y89.983 E0.51001
G1 X143.750 Y89.982 E0.06236
G1 X143.750 Y113.750 E0.98816
G1 X124.250 Y113.750 E0.81071
G1 X124.250 Y89.983 E0.98812
G1 X125.750 Y89.982 E0.06236
G1 X125.750 Y102.250 E0.51005
G1 X128.250 Y102.250 E0.10393
G1 F9000 X128.250 Y102.600
G1 X132.225 Y106.886
G1 X132.478 Y107.126
G1 F720 X131.935 Y107.772 E0.03509
G1 X131.789 Y108.036 E0.01254
G1 X131.597 Y108.846 E0.03461
G1 X131.596 Y109.151 E0.01268
G1 X131.721 Y109.692 E0.02309
G1 X131.789 Y109.964 E0.01165
G1 X131.934 Y110.228 E0.01253
G1 X132.281 Y110.662 E0.02310
G1 X132.477 Y110.872 E0.01194
G1 X132.724 Y111.029 E0.01217
G1 X133.225 Y111.270 E0.02311
G1 X133.506 Y111.360 E0.01227
G1 X133.791 Y111.379 E0.01187
G1 X134.346 Y111.378 E0.02308
G1 X134.644 Y111.323 E0.01260
G1 X135.395 Y110.962 E0.03464
G1 X135.630 Y110.769 E0.01264
G1 X135.975 Y110.335 E0.02305
G1 X136.144 Y110.103 E0.01194
G1 X136.350 Y109.545 E0.02473
G1 X136.412 Y109.000 E0.02280
G1 X136.350 Y108.454 E0.02285
G1 X136.142 Y107.893 E0.02487
G1 X135.631 Y107.233 E0.03470
G1 X135.398 Y107.036 E0.01269
G1 X134.645 Y106.676 E0.03470
G1 X134.347 Y106.620 E0.01261
G1 X133.792 Y106.621 E0.02307
G1 X133.507 Y106.638 E0.01187
G1 X133.226 Y106.728 E0.01227
G1 X132.726 Y106.971 E0.02311
G1 X132.478 Y107.126 E0.01216
G1 F9000 X131.906 Y106.097
;TYPE:SKIN
G1 F1800 X129.234 Y103.424 E0.15713
G1 F9000 X129.423 Y102.907
G1 F1800 X132.358 Y105.841 E0.17254
G1 F9000 X132.839 Y105.616
G1 F1800 X129.423 Y102.200 E0.20085
G1 F9000 X129.423 Y101.493
G1 F1800 X133.398 Y105.467 E0.23368
G1 F9000 X134.083 Y105.445
G1 F1800 X129.423 Y100.786 E0.27396
G1 F9000 X129.423 Y100.078
G1 F1800 X134.867 Y105.522 E0.32009
G1 F9000 X136.381 Y106.329
G1 F1800 X129.423 Y99.371 E0.40910
G1 F9000 X129.423 Y98.664
G1 F1800 X142.574 Y111.815 E0.77323
G1 F9000 X142.574 Y112.522
G1 F1800 X136.535 Y106.483 E0.35507
G1 F9000 X137.487 Y108.142
G1 F1800 X141.919 Y112.574 E0.26059
G1 F9000 X141.212 Y112.574
G1 F1800 X137.588 Y108.950 E0.21307
G1 F9000 X137.525 Y109.595
G1 F1800 X140.505 Y112.574 E0.17519
G1 F9000 X142.574 Y111.108
G1 F1800 X129.423 Y97.957 E0.77322
G1 F9000 X129.599 Y97.426
G1 F1800 X142.574 Y110.401 E0.76289
G1 F9000 X142.574 Y109.694
G1 F1800 X130.307 Y97.426 E0.72128
G1 F9000 X131.014 Y97.426
G1 F1800 X142.574 Y108.987 E0.67971
G1 F9000 X142.574 Y108.279
G1 F1800 X131.721 Y97.426 E0.63811
G1 F9000 X132.428 Y97.426
G1 F1800 X142.574 Y107.572 E0.59655
G1 F9000 X142.574 Y106.865
G1 F1800 X139.133 Y103.424 E0.20232
G1 F9000 X139.840 Y103.424
G1 F1800 X142.574 Y106.158 E0.16075
G1 F9000 X142.574 Y105.451
G1 F1800 X140.548 Y103.424 E0.11915
G1 F9000 X141.255 Y103.424
G1 F1800 X142.574 Y104.744 E0.07758
G1 F9000 X142.574 Y104.037
G1 F1800 X141.962 Y103.424 E0.03601
G1 F9000 X138.574 Y102.865
G1 F1800 X133.135 Y97.426 E0.31979
G1 F9000 X133.842 Y97.426
G1 F1800 X138.574 Y102.158 E0.27823
G1 F9000 X138.574 Y101.451
G1 F1800 X134.549 Y97.426 E0.23665
G1 F9000 X135.256 Y97.426
G1 F1800 X138.574 Y100.744 E0.19509
G1 F9000 X138.574 Y100.037
G1 F1800 X135.963 Y97.426 E0.15351
G1 F9000 X136.671 Y97.426
G1 F1800 X138.574 Y99.330 E0.11192
G1 F9000 X138.574 Y98.623
G1 F1800 X137.378 Y97.426 E0.07035
G1 F9000 X138.085 Y97.426
G1 F1800 X138.574 Y97.915 E0.02875
G1 F9000 X131.526 Y106.423
G1 F1800 X128.527 Y103.424 E0.17633
G1 F9000 X127.820 Y103.424
G1 F1800 X131.201 Y106.806 E0.19882
G1 F9000 X130.901 Y107.213
G1 F1800 X127.113 Y103.424 E0.22275
G1 F9000 X126.405 Y103.424
G1 F1800 X130.664 Y107.683 E0.25042
G1 F9000 X130.529 Y108.255
G1 F1800 X125.698 Y103.424 E0.28404
G1 F9000 X125.424 Y103.857
G1 F1800 X130.421 Y108.854 E0.29380
G1 F9000 X130.503 Y109.643
G1 F1800 X125.424 Y104.564 E0.29863
G1 F9000 X125.424 Y105.271
G1 F1800 X130.852 Y110.699 E0.31915
G1 F9000 X130.606 Y112.574
G1 F1800 X125.424 Y107.393 E0.30465
G1 F9000 X125.424 Y108.100
G1 F1800 X129.899 Y112.574 E0.26308
G1 F9000 X129.191 Y112.574
G1 F1800 X125.424 Y108.807 E0.22149
G1 F9000 X125.424 Y109.514
G1 F1800 X128.484 Y112.574 E0.17991
G1 F9000 X127.777 Y112.574
G1 F1800 X125.424 Y110.221 E0.13835
G1 F9000 X125.424 Y110.928
G1 F1800 X127.070 Y112.574 E0.09678
G1 F9000 X126.363 Y112.574
G1 F1800 X125.424 Y111.635 E0.05521
G1 F9000 X125.424 Y112.343
G1 F1800 X125.656 Y112.574 E0.01361
G1 F9000 X131.313 Y112.574
G1 F1800 X125.424 Y106.686 E0.34622
G1 F9000 X125.424 Y105.979
G1 F1800 X132.020 Y112.574 E0.38779
G1 F9000 X132.265 Y112.113
G1 F1800 X132.727 Y112.574 E0.02714
G1 F9000 X135.294 Y112.314
G1 F1800 X135.663 Y112.329 E0.01529
G1 X136.263 Y112.574 E0.02694
G1 F9000 X136.970 Y112.574
G1 F1800 X136.209 Y111.814 E0.04472
G1 F9000 X136.572 Y111.469
G1 F1800 X137.677 Y112.574 E0.06497
G1 F9000 X138.384 Y112.574
G1 F1800 X136.885 Y111.075 E0.08813
G1 F9000 X137.185 Y110.668
G1 F1800 X139.091 Y112.574 E0.11207
G1 F9000 X139.798 Y112.574
G1 F1800 X137.377 Y110.153 E0.14234
;LAYER:3
G1 F2400 E-4.50000
G1 F1800.000 E-4.0
G1 Z0.800
G1 F9000 X118.750 Y102.948 
G1 F1800.000 E4.0
;TYPE:WALL-INNER
G1 F2400 E4.50000
G1 F780 X117.658 Y104.332 E0.07330
G1 X117.288 Y104.869 E0.02711
G1 X117.030 Y105.192 E0.01719
G1 X116.250 Y105.186 E0.03243
G1 X116.250 Y112.307 E0.29605
G1 X103.750 Y112.307 E0.51969
G1 X103.750 Y105.205 E0.29527
G1 X102.976 Y105.199 E0.03218
G1 X102.712 Y104.872 E0.01747
G1 X102.344 Y104.335 E0.02707
G1 X101.250 Y102.948 E0.07344
G1 X101.250 Y97.324 E0.23382
G1 X118.750 Y97.324 E0.72756
G1 X118.750 Y102.948 E0.23382
G1 F9000 X113.533 Y103.001
G1 F780 X113.445 Y102.205 E0.03330
G1 X113.146 Y101.384 E0.03633
G1 X112.396 Y100.418 E0.05084
G1 X112.035 Y100.114 E0.01962
G1 X110.964 Y99.601 E0.04937
G1 X110.500 Y99.514 E0.01963
G1 X109.673 Y99.515 E0.03438
G1 X109.287 Y99.537 E0.01608
G1 X108.874 Y99.671 E0.01805
G1 X108.126 Y100.032 E0.03453
G1 X107.735 Y100.278 E0.01921
G1 X106.984 Y101.189 E0.04908
G1 X106.750 Y101.607 E0.01992
G1 X106.483 Y102.757 E0.04908
G1 X106.480 Y103.232 E0.01975
G1 X106.666 Y104.044 E0.03463
G1 X106.755 Y104.399 E0.01522
G1 X106.978 Y104.801 E0.01911
G1 X107.494 Y105.447 E0.03437
G1 X107.764 Y105.738 E0.01651
G1 X108.123 Y105.967 E0.01770
G1 X108.873 Y106.326 E0.03457
G1 X109.282 Y106.460 E0.01789
G1 X109.670 Y106.485 E0.01617
G1 X110.497 Y106.484 E0.03438
G1 X110.961 Y106.400 E0.01961
G1 X112.027 Y105.887 E0.04918
G1 X112.393 Y105.588 E0.01965
G1 X112.912 Y104.935 E0.03468
G1 X113.145 Y104.619 E0.01632
G1 X113.444 Y103.792 E0.03656
G1 X113.533 Y103.001 E0.03310
G1 F9000 X113.030 Y103.001
G1 F780 X112.955 Y102.320 E0.02848
G1 X112.700 Y101.621 E0.03093
G1 X112.517 Y101.368 E0.01299
G1 X112.036 Y100.769 E0.03193
G1 X111.762 Y100.538 E0.01490
G1 X110.807 Y100.080 E0.04404
G1 X110.454 Y100.014 E0.01493
G1 X109.688 Y100.015 E0.03185
G1 X109.380 Y100.033 E0.01282
G1 X109.061 Y100.136 E0.01394
G1 X108.369 Y100.471 E0.03196
G1 X108.070 Y100.658 E0.01466
G1 X107.398 Y101.472 E0.04389
G1 X107.221 Y101.789 E0.01509
G1 X106.982 Y102.816 E0.04384
G1 X106.981 Y103.177 E0.01501
G1 X107.153 Y103.928 E0.03203
G1 X107.224 Y104.214 E0.01225
G1 X107.395 Y104.522 E0.01465
G1 X107.873 Y105.121 E0.03186
G1 X108.087 Y105.351 E0.01306
G1 X108.366 Y105.529 E0.01376
G1 X109.060 Y105.861 E0.03199
G1 X109.377 Y105.965 E0.01387
G1 X109.686 Y105.985 E0.01287
G1 X110.452 Y105.984 E0.03185
G1 X110.806 Y105.920 E0.01495
G1 X111.756 Y105.462 E0.04385
G1 X112.035 Y105.235 E0.01495
G1 X112.515 Y104.631 E0.03208
G1 X112.699 Y104.380 E0.01294
G1 X112.953 Y103.678 E0.03104
G1 X113.030 Y103.001 E0.02832
G1 F9000 X116.750 Y105.690
G1 F780 X116.750 Y112.807 E0.29589
G1 X103.250 Y112.807 E0.56127
G1 X103.250 Y105.701 E0.29543
G1 X102.705 Y105.697 E0.02266
G1 X102.548 Y105.459 E0.01185
G1 X102.315 Y105.176 E0.01525
G1 X101.941 Y104.631 E0.02748
G1 X100.750 Y103.120 E0.07998
G1 X100.750 Y86.750 E0.68059
G1 X101.750 Y86.750 E0.04158
G1 X101.750 Y96.824 E0.41882
G1 X119.250 Y96.824 E0.72757
G1 X119.250 Y103.121 E0.26180
G1 X118.060 Y104.629 E0.07986
G1 X117.683 Y105.176 E0.02762
G1 X117.452 Y105.459 E0.01519
G1 X117.297 Y105.694 E0.01170
G1 X116.750 Y105.690 E0.02275
G1 F9000 X117.250 Y106.193
;TYPE:WALL-OUTER
G1 F780 X117.250 Y113.307 E0.29576
G1 X102.750 Y113.307 E0.60284
G1 X102.750 Y106.198 E0.29556
G1 X102.436 Y106.196 E0.01306
G1 X102.145 Y105.756 E0.02193
G1 X101.911 Y105.472 E0.01530
G1 X101.538 Y104.928 E0.02742
G1 X100.337 Y103.405 E0.08064
G1 X100.250 Y103.287 E0.00609
G1 X100.250 Y86.250 E0.70832
G1 X102.250 Y86.250 E0.08315
G1 X102.250 Y96.324 E0.41883
G1 X119.750 Y96.324 E0.72756
G1 X119.750 Y103.288 E0.28953
G1 X118.463 Y104.926 E0.08661
G1 X118.085 Y105.475 E0.02771
G1 X117.855 Y105.756 E0.01510
G1 X117.565 Y106.195 E0.02187
G1 X117.250 Y106.193 E0.01310
G1 F9000 X116.900 Y106.193
G1 X112.401 Y104.530
G1 X112.118 Y104.327
G1 F780 X112.254 Y104.142 E0.00954
G1 X112.463 Y103.563 E0.02560
G1 X112.527 Y103.000 E0.02355
G1 X112.464 Y102.435 E0.02364
G1 X112.254 Y101.858 E0.02553
G1 X111.677 Y101.120 E0.03894
G1 X111.489 Y100.961 E0.01024
G1 X110.650 Y100.559 E0.03868
G1 X110.408 Y100.514 E0.01023
G1 X109.703 Y100.515 E0.02931
G1 X109.473 Y100.528 E0.00958
G1 X109.248 Y100.601 E0.00984
G1 X108.611 Y100.909 E0.02941
G1 X108.404 Y101.039 E0.01017
G1 X107.813 Y101.755 E0.03859
G1 X107.692 Y101.971 E0.01030
G1 X107.482 Y102.875 E0.03858
G1 X107.481 Y103.122 E0.01027
G1 X107.639 Y103.811 E0.02939
G1 X107.693 Y104.029 E0.00934
G1 X107.812 Y104.243 E0.01018
G1 X108.252 Y104.794 E0.02931
G1 X108.410 Y104.964 E0.00965
G1 X108.609 Y105.091 E0.00982
G1 X109.247 Y105.396 E0.02940
G1 X109.472 Y105.470 E0.00984
G1 X109.701 Y105.485 E0.00955
G1 X110.407 Y105.484 E0.02935
G1 X110.650 Y105.440 E0.01026
G1 X111.486 Y105.037 E0.03859
G1 X111.677 Y104.882 E0.01023
G1 X112.118 Y104.327 E0.02947
G1 F9000 X112.854 Y105.287
;TYPE:SKIN
G1 F2340 X118.574 Y99.568 E0.33628
G1 F9000 X118.574 Y98.861
G1 F2340 X113.616 Y103.818 E0.29148
G1 F9000 X113.706 Y103.021
G1 F2340 X118.574 Y98.154 E0.28619
G1 F9000 X118.522 Y97.498
G1 F2340 X113.640 Y102.380 E0.28705
G1 F9000 X113.492 Y101.821
G1 F2340 X117.815 Y97.498 E0.25417
G1 F9000 X117.108 Y97.498
G1 F2340 X113.302 Y101.304 E0.22378
G1 F9000 X112.994 Y100.904
G1 F2340 X116.401 Y97.498 E0.20029
G1 F9000 X115.693 Y97.498
G1 F2340 X112.685 Y100.506 E0.17686
G1 F9000 X112.341 Y100.143
G1 F2340 X114.986 Y97.498 E0.15551
G1 F9000 X114.279 Y97.498
G1 F2340 X111.915 Y99.863 E0.13903
G1 F9000 X111.437 Y99.634
G1 F2340 X113.572 Y97.498 E0.12556
G1 F9000 X112.865 Y97.498
G1 F2340 X110.944 Y99.419 E0.11295
G1 F9000 X110.317 Y99.340
G1 F2340 X112.158 Y97.498 E0.10827
G1 F9000 X111.451 Y97.498
G1 F2340 X109.605 Y99.344 E0.10854
G1 F9000 X108.665 Y99.577
G1 F2340 X110.744 Y97.498 E0.12223
G1 F9000 X110.037 Y97.498
G1 F2340 X102.818 Y104.716 E0.42442
G1 F9000 X103.217 Y105.025
G1 F2340 X106.550 Y101.692 E0.19597
G1 F9000 X106.336 Y102.613
G1 F2340 X103.919 Y105.030 E0.14211
G1 F9000 X103.924 Y105.732
G1 F2340 X106.322 Y103.334 E0.14099
G1 F9000 X106.454 Y103.909
G1 F2340 X103.924 Y106.439 E0.14876
G1 F9000 X103.924 Y107.146
G1 F2340 X106.596 Y104.475 E0.15707
G1 F9000 X106.853 Y104.925
G1 F2340 X103.924 Y107.853 E0.17219
G1 F9000 X103.924 Y108.560
G1 F2340 X107.166 Y105.319 E0.19059
G1 F9000 X107.490 Y105.702
G1 F2340 X103.924 Y109.267 E0.20963
G1 F9000 X103.924 Y109.974
G1 F2340 X107.879 Y106.020 E0.23251
G1 F9000 X108.341 Y106.265
G1 F2340 X103.924 Y110.682 E0.25970
G1 F9000 X103.924 Y111.389
G1 F2340 X108.820 Y106.493 E0.28787
G1 F9000 X109.380 Y106.640
G1 F2340 X103.924 Y112.096 E0.32079
G1 F9000 X104.596 Y112.131
G1 F2340 X110.068 Y106.659 E0.32174
G1 F9000 X110.835 Y106.599
G1 F2340 X105.303 Y112.131 E0.32526
G1 F9000 X106.010 Y112.131
G1 F2340 X112.094 Y106.047 E0.35771
G1 F9000 X116.074 Y106.310
G1 F2340 X110.253 Y112.131 E0.34225
G1 F9000 X110.960 Y112.131
G1 F2340 X116.074 Y107.017 E0.30069
G1 F9000 X116.074 Y107.724
G1 F2340 X111.667 Y112.131 E0.25911
G1 F9000 X112.374 Y112.131
G1 F2340 X116.074 Y108.431 E0.21755
G1 F9000 X116.074 Y109.139
G1 F2340 X113.081 Y112.131 E0.17595
G1 F9000 X113.789 Y112.131
G1 F2340 X116.074 Y109.846 E0.13435
G1 F9000 X116.074 Y110.553
G1 F2340 X114.496 Y112.131 E0.09278
G1 F9000 X115.203 Y112.131
G1 F2340 X116.074 Y111.260 E0.05121
G1 F9000 X116.074 Y111.967
G1 F2340 X115.910 Y112.131 E0.00964
G1 F9000 X109.546 Y112.131
G1 F2340 X116.074 Y105.603 E0.38382
G1 F9000 X116.663 Y105.014
G1 F2340 X117.766 Y103.911 E0.06485
G1 F9000 X118.574 Y102.396
G1 F2340 X108.839 Y112.131 E0.57238
G1 F9000 X108.132 Y112.131
G1 F2340 X118.574 Y101.689 E0.61395
G1 F9000 X118.574 Y100.982
G1 F2340 X107.425 Y112.131 E0.65552
G1 F9000 X106.717 Y112.131
G1 F2340 X118.574 Y100.275 E0.69712
G1 F9000 X109.330 Y97.498
G1 F2340 X102.531 Y104.297 E0.39975
G1 F9000 X102.223 Y103.898
G1 F2340 X108.622 Y97.498 E0.37627
G1 F9000 X107.915 Y97.498
G1 F2340 X101.911 Y103.502 E0.35301
G1 F9000 X101.599 Y103.107
G1 F2340 X107.208 Y97.498 E0.32979
G1 F9000 X106.501 Y97.498
G1 F2340 X101.425 Y102.575 E0.29848
G1 F9000 X101.425 Y101.867
G1 F2340 X105.794 Y97.498 E0.25688
G1 F9000 X105.087 Y97.498
G1 F2340 X101.425 Y101.160 E0.21531
G1 F9000 X101.425 Y100.453
G1 F2340 X104.380 Y97.498 E0.17374
G1 F9000 X103.673 Y97.498
G1 F2340 X101.425 Y99.746 E0.13218
G1 F9000 X101.425 Y99.039
G1 F2340 X102.966 Y97.498 E0.09060
G1 F9000 X102.258 Y97.498
G1 F2340 X101.425 Y98.332 E0.04901
G1 F9000 X101.425 Y97.625
G1 F2340 X101.551 Y97.498 E0.00744
G1 F2400 E-4.50000
G1 F9000 X125.250 Y103.250
;TYPE:WALL-INNER
G1 F2400 E4.50000
G1 F780 X129.250 Y103.250 E0.16630
G1 X129.250 Y97.325 E0.24633
G1 X138.750 Y97.325 E0.39496
G1 X138.750 Y103.250 E0.24634
G1 X142.750 Y103.250 E0.16630
G1 X142.750 Y112.750 E0.39496
G1 X125.250 Y112.750 E0.72757
G1 X125.250 Y103.250 E0.39496
G1 F9000 X130.863 Y107.167
G1 F780 X130.650 Y107.546 E0.01808
G1 X130.365 Y108.774 E0.05241
G1 X130.362 Y109.216 E0.01837
G1 X130.573 Y110.134 E0.03917
G1 X130.653 Y110.456 E0.01379
G1 X130.860 Y110.831 E0.01781
G1 X131.444 Y111.562 E0.03890
G1 X131.692 Y111.831 E0.01521
G1 X132.026 Y112.041 E0.01640
G1 X132.872 Y112.448 E0.03903
G1 X133.250 Y112.572 E0.01654
G1 X133.606 Y112.595 E0.01483
G1 X134.544 Y112.594 E0.03900
G1 X134.975 Y112.516 E0.01821
G1 X136.109 Y111.970 E0.05233
G1 X136.451 Y111.692 E0.01832
G1 X137.038 Y110.953 E0.03924
G1 X137.253 Y110.661 E0.01507
G1 X137.556 Y109.816 E0.03732
G1 X137.648 Y109.001 E0.03410
G1 X137.557 Y108.182 E0.03426
G1 X137.245 Y107.318 E0.03819
G1 X136.459 Y106.318 E0.05289
G1 X136.120 Y106.033 E0.01841
G1 X135.269 Y105.624 E0.03925
G1 X134.978 Y105.485 E0.01341
G1 X134.548 Y105.404 E0.01819
G1 X133.609 Y105.405 E0.03904
G1 X133.257 Y105.425 E0.01466
G1 X132.874 Y105.549 E0.01674
G1 X132.030 Y105.957 E0.03897
G1 X131.701 Y106.161 E0.01610
G1 X131.445 Y106.433 E0.01552
G1 X130.863 Y107.167 E0.03895
G1 F9000 X131.279 Y107.447
G1 F780 X131.121 Y107.729 E0.01344
G1 X130.865 Y108.833 E0.04712
G1 X130.862 Y109.161 E0.01363
G1 X131.060 Y110.017 E0.03653
G1 X131.123 Y110.272 E0.01092
G1 X131.277 Y110.552 E0.01329
G1 X131.824 Y111.236 E0.03641
G1 X132.015 Y111.443 E0.01171
G1 X132.268 Y111.603 E0.01244
G1 X133.059 Y111.983 E0.03649
G1 X133.346 Y112.077 E0.01255
G1 X133.621 Y112.095 E0.01146
G1 X134.499 Y112.094 E0.03650
G1 X134.820 Y112.036 E0.01357
G1 X135.839 Y111.545 E0.04702
G1 X136.093 Y111.339 E0.01360
G1 X136.641 Y110.649 E0.03663
G1 X136.807 Y110.424 E0.01163
G1 X137.065 Y109.702 E0.03187
G1 X137.145 Y109.001 E0.02934
G1 X137.067 Y108.296 E0.02949
G1 X136.802 Y107.564 E0.03236
G1 X136.098 Y106.668 E0.04738
G1 X135.846 Y106.456 E0.01369
G1 X134.822 Y105.964 E0.04723
G1 X134.502 Y105.904 E0.01354
G1 X133.624 Y105.905 E0.03650
G1 X133.350 Y105.921 E0.01141
G1 X133.061 Y106.014 E0.01262
G1 X132.271 Y106.396 E0.03649
G1 X132.020 Y106.552 E0.01228
G1 X131.279 Y107.447 E0.04831
G1 F9000 X128.750 Y102.750
G1 F780 X128.750 Y96.825 E0.24633
G1 X139.250 Y96.825 E0.43654
G1 X139.250 Y102.750 E0.24633
G1 X142.750 Y102.750 E0.14552
G1 X142.750 Y89.999 E0.53012
G1 X143.250 Y89.999 E0.02079
G1 X143.250 Y113.250 E0.96666
G1 X124.750 Y113.250 E0.76915
G1 X124.750 Y89.999 E0.96666
G1 X125.250 Y89.999 E0.02079
G1 X125.250 Y102.750 E0.53012
G1 X128.750 Y102.750 E0.14552
G1 F9000 X128.250 Y102.250
;TYPE:WALL-OUTER
G1 F780 X128.250 Y96.325 E0.24633
G1 X139.750 Y96.324 E0.47811
G1 X139.750 Y102.250 E0.24638
G1 X142.250 Y102.250 E0.10393
G1 X142.250 Y89.499 E0.53013
G1 X143.750 Y89.498 E0.06236
G1 X143.750 Y113.750 E1.00828
G1 X124.250 Y113.750 E0.81072
G1 X124.250 Y89.499 E1.00824
G1 X125.750 Y89.498 E0.06236
G1 X125.750 Y102.250 E0.53017
G1 X128.250 Y102.250 E0.10394
G1 F9000 X128.250 Y102.600
G1 X132.328 Y106.537
G1 X132.512 Y106.835
G1 F780 X132.339 Y106.942 E0.00845
G1 X131.696 Y107.726 E0.04216
G1 X131.592 Y107.912 E0.00886
G1 X131.364 Y108.892 E0.04183
G1 X131.363 Y109.106 E0.00890
G1 X131.546 Y109.901 E0.03391
G1 X131.592 Y110.088 E0.00801
G1 X131.694 Y110.273 E0.00878
G1 X132.203 Y110.910 E0.03390
G1 X132.338 Y111.056 E0.00827
G1 X132.511 Y111.165 E0.00850
G1 X133.246 Y111.518 E0.03390
G1 X133.441 Y111.582 E0.00853
G1 X133.637 Y111.595 E0.00817
G1 X134.454 Y111.594 E0.03397
G1 X134.664 Y111.556 E0.00887
G1 X135.570 Y111.120 E0.04180
G1 X135.736 Y110.985 E0.00890
G1 X136.244 Y110.345 E0.03397
G1 X136.361 Y110.186 E0.00821
G1 X136.575 Y109.588 E0.02640
G1 X136.642 Y109.000 E0.02461
G1 X136.576 Y108.410 E0.02468
G1 X136.359 Y107.809 E0.02656
G1 X135.737 Y107.017 E0.04187
G1 X135.573 Y106.879 E0.00891
G1 X134.665 Y106.443 E0.04188
G1 X134.455 Y106.404 E0.00888
G1 X133.639 Y106.405 E0.03392
G1 X133.443 Y106.416 E0.00817
G1 X133.248 Y106.479 E0.00852
G1 X132.512 Y106.835 E0.03399
G1 F9000 X132.317 Y105.624
;TYPE:SKIN
G1 F2340 X138.573 Y99.367 E0.36786
G1 F9000 X138.573 Y98.660
G1 F2340 X125.424 Y111.809 E0.77311
G1 F9000 X125.424 Y112.516
G1 F2340 X130.517 Y107.424 E0.29942
G1 F9000 X130.278 Y108.370
G1 F2340 X126.073 Y112.574 E0.24720
G1 F9000 X126.780 Y112.574
G1 F2340 X130.186 Y109.169 E0.20023
G1 F9000 X130.305 Y109.757
G1 F2340 X127.487 Y112.574 E0.16566
G1 F9000 X128.194 Y112.574
G1 F2340 X130.440 Y110.329 E0.13203
G1 F9000 X130.654 Y110.822
G1 F2340 X128.902 Y112.574 E0.10301
G1 F9000 X129.609 Y112.574
G1 F2340 X130.954 Y111.230 E0.07905
G1 F9000 X131.268 Y111.623
G1 F2340 X130.316 Y112.574 E0.05595
G1 F9000 X131.023 Y112.574
G1 F2340 X131.834 Y112.116 E0.03454
G1 X131.730 Y112.574 E0.01952
G1 F9000 X135.973 Y112.574
G1 F2340 X142.574 Y105.973 E0.38812
G1 F9000 X142.574 Y106.680
G1 F2340 X136.680 Y112.574 E0.34654
G1 F9000 X137.387 Y112.574
G1 F2340 X142.574 Y107.387 E0.30498
G1 F9000 X142.574 Y108.094
G1 F2340 X138.094 Y112.574 E0.26340
G1 F9000 X138.801 Y112.574
G1 F2340 X142.574 Y108.801 E0.22184
G1 F9000 X142.574 Y109.508
G1 F2340 X139.508 Y112.574 E0.18027
G1 F9000 X137.582 Y110.258
G1 F2340 X142.574 Y105.266 E0.29351
G1 F9000 X142.574 Y104.559
G1 F2340 X137.783 Y109.349 E0.28166
G1 F9000 X137.783 Y108.643
G1 F2340 X142.574 Y103.852 E0.28170
G1 F9000 X142.294 Y103.424
G1 F2340 X137.687 Y108.031 E0.27087
G1 F9000 X137.499 Y107.512
G1 F2340 X141.587 Y103.424 E0.24036
G1 F9000 X140.880 Y103.424
G1 F2340 X137.255 Y107.049 E0.21314
G1 F9000 X136.944 Y106.653
G1 F2340 X140.173 Y103.424 E0.18985
G1 F9000 X142.574 Y110.216
G1 F2340 X140.215 Y112.574 E0.13867
G1 F9000 X140.922 Y112.574
G1 F2340 X142.574 Y110.923 E0.09710
G1 F9000 X142.574 Y111.630
G1 F2340 X141.629 Y112.574 E0.05553
G1 F9000 X142.337 Y112.574
G1 F2340 X142.574 Y112.337 E0.01394
G1 F9000 X136.634 Y106.256
G1 F2340 X139.466 Y103.424 E0.16651
G1 F9000 X138.759 Y103.424
G1 F2340 X136.260 Y105.923 E0.14693
G1 F9000 X135.793 Y105.683
G1 F2340 X138.573 Y102.903 E0.16345
G1 F9000 X138.573 Y102.196
G1 F2340 X135.316 Y105.453 E0.19150
G1 F9000 X134.790 Y105.271
G1 F2340 X138.573 Y101.488 E0.22243
G1 F9000 X138.573 Y100.781
G1 F2340 X134.126 Y105.229 E0.26150
G1 F9000 X133.406 Y105.242
G1 F2340 X138.573 Y100.074 E0.30382
G1 F9000 X138.573 Y97.953
G1 F2340 X125.424 Y111.102 E0.77312
G1 F9000 X125.424 Y110.395
G1 F2340 X138.319 Y97.500 E0.75817
G1 F9000 X137.612 Y97.500
G1 F2340 X125.424 Y109.688 E0.71661
G1 F9000 X125.424 Y108.981
G1 F2340 X136.905 Y97.500 E0.67504
G1 F9000 X136.198 Y97.500
G1 F2340 X125.424 Y108.274 E0.63347
G1 F9000 X125.424 Y107.567
G1 F2340 X135.491 Y97.500 E0.59190
G1 F9000 X134.784 Y97.500
G1 F2340 X129.424 Y102.859 E0.31512
G1 F9000 X129.424 Y102.152
G1 F2340 X134.077 Y97.500 E0.27355
G1 F9000 X133.370 Y97.500
G1 F2340 X129.424 Y101.445 E0.23198
G1 F9000 X129.424 Y100.738
G1 F2340 X132.663 Y97.500 E0.19041
G1 F9000 X131.956 Y97.500
G1 F2340 X129.424 Y100.031 E0.14884
G1 F9000 X128.859 Y103.424
G1 F2340 X125.424 Y106.860 E0.20200
G1 F9000 X125.424 Y106.152
G1 F2340 X128.152 Y103.424 E0.16039
G1 F9000 X127.445 Y103.424
G1 F2340 X125.424 Y105.445 E0.11883
G1 F9000 X125.424 Y104.738
G1 F2340 X126.738 Y103.424 E0.07726
G1 F9000 X126.031 Y103.424
G1 F2340 X125.424 Y104.031 E0.03569
G1 F9000 X128.641 Y102.641
G1 X129.424 Y99.324
G1 F2340 X131.248 Y97.500 E0.10724
G1 F9000 X130.541 Y97.500
G1 F2340 X129.424 Y98.617 E0.06568
G1 F9000 X129.424 Y97.910
G1 F2340 X129.834 Y97.500 E0.02410
;LAYER:4
G1 F2400 E-4.50000
G1 F1800.000 E-4.0
G1 Z1.000
G1 F9000 X118.574 Y98.201 
G1 F1800.000 E4.0
;TYPE:FILL
G1 F2400 E4.50000
G1 F900 X117.945 Y97.572 E0.03698
G1 F9000 X117.113 Y97.572
G1 F900 X118.574 Y99.033 E0.08591
G1 F9000 X118.574 Y99.864
G1 F900 X116.282 Y97.572 E0.13476
G1 F9000 X115.450 Y97.572
G1 F900 X118.574 Y100.696 E0.18368
G1 F9000 X118.574 Y101.527
G1 F900 X114.619 Y97.572 E0.23253
G1 F9000 X113.787 Y97.572
G1 F900 X118.574 Y102.359 E0.28146
G1 F9000 X118.370 Y102.986
G1 F900 X112.956 Y97.572 E0.31832
G1 F9000 X112.124 Y97.572
G1 F900 X118.003 Y103.451 E0.34567
G1 F9000 X117.636 Y103.915
G1 F900 X111.292 Y97.572 E0.37297
G1 F9000 X110.461 Y97.572
G1 F900 X117.274 Y104.385 E0.40058
G1 F9000 X116.845 Y104.788
G1 F900 X113.924 Y101.866 E0.17177
G1 F9000 X114.088 Y102.862
G1 F900 X116.074 Y104.848 E0.11677
G1 F9000 X116.074 Y105.679
G1 F900 X114.028 Y103.633 E0.12030
G1 F9000 X113.857 Y104.294
G1 F900 X116.074 Y106.511 E0.13035
G1 F9000 X116.074 Y107.343
G1 F900 X113.632 Y104.901 E0.14358
G1 F9000 X113.282 Y105.382
G1 F900 X116.074 Y108.174 E0.16416
G1 F9000 X116.074 Y109.006
G1 F900 X112.924 Y105.856 E0.18521
G1 F9000 X112.479 Y106.242
G1 F900 X116.074 Y109.837 E0.21137
G1 F9000 X116.074 Y110.669
G1 F900 X111.963 Y106.558 E0.24171
G1 F9000 X111.399 Y106.825
G1 F900 X116.074 Y111.500 E0.27487
G1 F9000 X116.074 Y112.332
G1 F900 X110.751 Y107.009 E0.31297
G1 F9000 X109.981 Y107.071
G1 F900 X115.242 Y112.331 E0.30930
G1 F9000 X114.410 Y112.331
G1 F900 X109.059 Y106.981 E0.31459
G1 F9000 X107.462 Y106.215
G1 F900 X113.579 Y112.331 E0.35963
G1 F9000 X112.747 Y112.331
G1 F900 X101.424 Y101.008 E0.66575
G1 F9000 X101.424 Y100.177
G1 F900 X107.022 Y105.774 E0.32911
G1 F9000 X106.065 Y103.986
G1 F900 X101.424 Y99.345 E0.27287
G1 F9000 X101.424 Y98.514
G1 F900 X105.919 Y103.009 E0.26429
G1 F9000 X106.000 Y102.258
G1 F900 X101.424 Y97.682 E0.26905
G1 F9000 X102.145 Y97.572
G1 F900 X106.167 Y101.594 E0.23648
G1 F9000 X106.431 Y101.026
G1 F900 X102.977 Y97.572 E0.20308
G1 F9000 X103.808 Y97.572
G1 F900 X106.762 Y100.525 E0.17365
G1 F9000 X107.153 Y100.085
G1 F900 X104.640 Y97.572 E0.14776
G1 F9000 X105.472 Y97.572
G1 F900 X107.596 Y99.697 E0.12491
G1 F9000 X108.113 Y99.382
G1 F900 X106.303 Y97.572 E0.10642
G1 F9000 X107.135 Y97.572
G1 F900 X108.698 Y99.135 E0.09190
G1 F9000 X109.358 Y98.963
G1 F900 X107.966 Y97.572 E0.08182
G1 F9000 X108.798 Y97.572
G1 F900 X110.153 Y98.927 E0.07966
G1 F9000 X111.117 Y99.060
G1 F900 X109.629 Y97.572 E0.08749
G1 F9000 X101.424 Y101.840
G1 F900 X111.915 Y112.331 E0.61683
G1 F9000 X111.084 Y112.331
G1 F900 X103.924 Y105.172 E0.42096
G1 F9000 X103.566 Y104.813
G1 F900 X101.424 Y102.671 E0.12594
G1 F9000 X103.924 Y106.003
G1 F900 X110.252 Y112.331 E0.37206
G1 F9000 X109.420 Y112.330
G1 F900 X103.924 Y106.835 E0.32311
G1 F9000 X103.924 Y107.666
G1 F900 X108.588 Y112.330 E0.27423
G1 F9000 X107.757 Y112.330
G1 F900 X103.924 Y108.498 E0.22533
G1 F9000 X103.924 Y109.330
G1 F900 X106.925 Y112.330 E0.17642
G1 F9000 X106.094 Y112.330
G1 F900 X103.924 Y110.161 E0.12756
G1 F9000 X103.924 Y110.993
G1 F900 X105.262 Y112.330 E0.07864
G1 F9000 X104.431 Y112.330
G1 F900 X103.924 Y111.824 E0.02978
G1 F9000 X103.750 Y112.507
;TYPE:WALL-INNER
G1 F900 X103.750 Y104.992 E0.31244
G1 X102.942 Y104.980 E0.03359
G1 X102.818 Y104.828 E0.00816
G1 X102.519 Y104.393 E0.02195
G1 X101.250 Y102.784 E0.08519
G1 X101.250 Y97.397 E0.22397
G1 X118.750 Y97.397 E0.72756
G1 X118.750 Y102.789 E0.22418
G1 X117.482 Y104.392 E0.08497
G1 X117.176 Y104.837 E0.02245
G1 X117.069 Y104.967 E0.00700
G1 X116.250 Y104.956 E0.03406
G1 X116.250 Y112.507 E0.31393
G1 X103.750 Y112.507 E0.51969
G1 F9000 X107.669 Y105.971
G1 F900 X108.889 Y106.574 E0.05658
G1 X109.215 Y106.682 E0.01428
G1 X109.511 Y106.701 E0.01233
G1 X110.609 Y106.700 E0.04565
G1 X110.980 Y106.633 E0.01567
G1 X112.197 Y106.046 E0.05618
G1 X112.493 Y105.811 E0.01571
G1 X113.178 Y104.947 E0.04584
G1 X113.361 Y104.706 E0.01258
G1 X113.668 Y103.839 E0.03824
G1 X113.763 Y103.001 E0.03506
G1 X113.669 Y102.158 E0.03527
G1 X113.356 Y101.279 E0.03879
G1 X112.504 Y100.204 E0.05703
G1 X112.215 Y99.960 E0.01572
G1 X111.216 Y99.480 E0.04608
G1 X110.984 Y99.369 E0.01070
G1 X110.616 Y99.298 E0.01558
G1 X109.517 Y99.299 E0.04569
G1 X109.226 Y99.314 E0.01211
G1 X108.899 Y99.421 E0.01431
G1 X107.912 Y99.897 E0.04556
G1 X107.595 Y100.093 E0.01549
G1 X106.740 Y101.151 E0.05655
G1 X106.554 Y101.482 E0.01579
G1 X106.250 Y102.804 E0.05640
G1 X106.247 Y103.182 E0.01571
G1 X106.493 Y104.258 E0.04589
G1 X106.558 Y104.523 E0.01135
G1 X106.736 Y104.843 E0.01522
G1 X107.419 Y105.697 E0.04546
G1 X107.669 Y105.971 E0.01542
G1 F9000 X107.799 Y105.372
G1 F900 X107.975 Y105.564 E0.01083
G1 X109.080 Y106.110 E0.05125
G1 X109.311 Y106.187 E0.01012
G1 X109.526 Y106.201 E0.00896
G1 X110.564 Y106.200 E0.04315
G1 X110.824 Y106.153 E0.01099
G1 X111.930 Y105.620 E0.05104
G1 X112.136 Y105.455 E0.01097
G1 X112.783 Y104.640 E0.04327
G1 X112.916 Y104.466 E0.00910
G1 X113.178 Y103.726 E0.03264
G1 X113.260 Y103.001 E0.03033
G1 X113.179 Y102.271 E0.03054
G1 X112.913 Y101.525 E0.03293
G1 X112.143 Y100.554 E0.05152
G1 X111.941 Y100.383 E0.01100
G1 X111.000 Y99.931 E0.04340
G1 X110.826 Y99.848 E0.00802
G1 X110.569 Y99.798 E0.01088
G1 X109.531 Y99.799 E0.04316
G1 X109.318 Y99.810 E0.00887
G1 X109.086 Y99.886 E0.01014
G1 X108.153 Y100.336 E0.04307
G1 X107.930 Y100.474 E0.01090
G1 X107.155 Y101.433 E0.05127
G1 X107.025 Y101.664 E0.01102
G1 X106.750 Y102.863 E0.05114
G1 X106.747 Y103.128 E0.01102
G1 X106.979 Y104.143 E0.04328
G1 X107.028 Y104.339 E0.00840
G1 X107.153 Y104.564 E0.01070
G1 X107.799 Y105.372 E0.04301
G1 F9000 X103.250 Y105.485
G1 F900 X102.703 Y105.477 E0.02275
G1 X102.424 Y105.138 E0.01825
G1 X102.116 Y104.690 E0.02260
G1 X100.750 Y102.957 E0.09175
G1 X100.750 Y86.750 E0.67380
G1 X101.750 Y86.750 E0.04158
G1 X101.750 Y96.897 E0.42186
G1 X119.250 Y96.897 E0.72757
G1 X119.250 Y102.964 E0.25224
G1 X117.884 Y104.689 E0.09148
G1 X117.577 Y105.136 E0.02254
G1 X117.303 Y105.470 E0.01796
G1 X116.750 Y105.463 E0.02299
G1 X116.750 Y113.007 E0.31365
G1 X103.250 Y113.007 E0.56126
G1 X103.250 Y105.485 E0.31273
G1 F9000 X102.750 Y105.978
;TYPE:WALL-OUTER
G1 F900 X102.435 Y105.973 E0.01310
G1 X102.317 Y105.795 E0.00888
G1 X102.022 Y105.436 E0.01932
G1 X101.713 Y104.987 E0.02266
G1 X100.270 Y103.156 E0.09692
G1 X100.250 Y103.133 E0.00127
G1 X100.250 Y86.250 E0.70191
G1 X102.250 Y86.250 E0.08315
G1 X102.250 Y96.397 E0.42186
G1 X119.750 Y96.397 E0.72757
G1 X119.750 Y103.137 E0.28022
G1 X118.287 Y104.986 E0.09802
G1 X117.974 Y105.441 E0.02296
G1 X117.683 Y105.795 E0.01905
G1 X117.565 Y105.974 E0.00892
G1 X117.250 Y105.970 E0.01309
G1 X117.250 Y113.507 E0.31336
G1 X102.750 Y113.507 E0.60284
G1 X102.750 Y105.978 E0.31302
G1 F9000 X103.100 Y105.978
G1 X107.128 Y104.118
G1 X107.466 Y104.027
G1 F900 X107.497 Y104.154 E0.00543
G1 X107.570 Y104.285 E0.00624
G1 X108.179 Y105.047 E0.04055
G1 X108.280 Y105.157 E0.00621
G1 X109.271 Y105.647 E0.04596
G1 X109.408 Y105.692 E0.00600
G1 X109.542 Y105.701 E0.00558
G1 X110.519 Y105.700 E0.04062
G1 X110.668 Y105.673 E0.00629
G1 X111.662 Y105.194 E0.04588
G1 X111.780 Y105.100 E0.00627
G1 X112.388 Y104.333 E0.04069
G1 X112.471 Y104.225 E0.00567
G1 X112.687 Y103.613 E0.02698
G1 X112.757 Y103.000 E0.02565
G1 X112.688 Y102.384 E0.02577
G1 X112.470 Y101.771 E0.02705
G1 X111.782 Y100.903 E0.04605
G1 X111.666 Y100.806 E0.00628
G1 X110.669 Y100.327 E0.04599
G1 X110.521 Y100.298 E0.00627
G1 X109.544 Y100.299 E0.04062
G1 X109.410 Y100.306 E0.00558
G1 X109.273 Y100.351 E0.00599
G1 X108.394 Y100.775 E0.04058
G1 X108.265 Y100.855 E0.00631
G1 X107.570 Y101.714 E0.04594
G1 X107.496 Y101.846 E0.00629
G1 X107.249 Y102.922 E0.04590
G1 X107.248 Y103.074 E0.00632
G1 X107.466 Y104.027 E0.04064
G1 F9000 X106.441 Y104.673
;TYPE:SKIN
G1 F3000 X105.277 Y103.509 E0.06844
G1 F9000 X105.269 Y102.794
G1 F3000 X106.189 Y103.714 E0.05409
G1 F9000 X106.073 Y102.891
G1 F3000 X105.351 Y102.169 E0.04245
G1 F9000 X105.492 Y101.603
G1 F3000 X106.252 Y102.009 E0.04077
G1 X105.789 Y100.840 E0.03837
G1 X106.655 Y100.998 E0.03477
G1 X106.360 Y99.996 E0.03552
G1 X107.277 Y100.206 E0.03504
G1 X107.067 Y99.289 E0.03348
G1 X108.097 Y99.612 E0.03465
G1 X107.939 Y98.746 E0.03733
G1 X109.098 Y99.198 E0.03734
G1 X108.704 Y98.451 E0.03511
G1 F9000 X109.278 Y98.318
G1 F3000 X110.083 Y99.122 E0.04730
G1 F9000 X110.828 Y99.161
G1 F3000 X109.945 Y98.277 E0.05195
G1 F9000 X110.137 Y97.763
G1 F3000 X109.688 Y97.667 E0.01123
G1 X108.981 Y97.667 E0.01116
G1 X108.274 Y97.667 E0.01117
G1 X107.567 Y97.667 E0.01117
G1 X106.860 Y97.667 E0.01117
G1 X106.152 Y97.667 E0.01119
G1 X105.445 Y97.667 E0.01117
G1 X104.738 Y97.667 E0.01117
G1 X104.031 Y97.667 E0.01117
G1 X103.324 Y97.667 E0.01117
G1 X102.617 Y97.667 E0.01117
G1 X101.910 Y97.667 E0.01117
G1 X101.461 Y97.572 E0.01908
G1 F9000 X110.653 Y97.572
G1 F3000 X111.102 Y97.667 E0.01122
G1 X111.809 Y97.667 E0.01117
G1 X112.516 Y97.667 E0.01117
G1 X113.223 Y97.667 E0.01116
G1 X113.931 Y97.667 E0.01119
G1 X114.638 Y97.667 E0.01117
G1 X115.345 Y97.667 E0.01117
G1 X116.052 Y97.667 E0.01117
G1 X116.759 Y97.667 E0.01117
G1 X117.466 Y97.667 E0.01117
G1 X118.173 Y97.667 E0.01117
G1 X118.574 Y97.715 E0.01679
G1 F9000 X114.419 Y101.337
G1 F3000 X111.659 Y98.578 E0.16225
G1 F9000 X110.692 Y98.318
G1 F3000 X112.072 Y99.697 E0.08111
G1 F9000 X113.293 Y100.918
G1 F3000 X114.675 Y102.300 E0.08125
G1 F9000 X114.747 Y103.079
G1 F3000 X113.845 Y102.178 E0.05301
G1 F9000 X113.934 Y102.974
G1 F3000 X114.672 Y103.712 E0.04339
G1 F9000 X114.554 Y104.301
G1 F3000 X113.799 Y103.899 E0.04033
G1 X114.253 Y105.061 E0.03692
G1 X113.401 Y104.915 E0.03551
G1 X113.694 Y105.915 E0.03457
G1 X112.788 Y105.717 E0.03509
G1 X113.010 Y106.646 E0.03359
G1 X111.993 Y106.337 E0.03438
G1 X112.141 Y107.192 E0.03680
G1 X111.010 Y106.768 E0.03656
G1 X111.421 Y107.532 E0.03607
G1 F9000 X110.836 Y107.654
G1 F3000 X110.057 Y106.875 E0.04580
G1 F9000 X109.339 Y106.865
G1 F3000 X110.195 Y107.720 E0.05030
G1 F9000 X109.460 Y107.692
G1 F3000 X108.193 Y106.425 E0.07449
G1 F9000 X107.122 Y106.768
G1 F3000 X106.334 Y105.980 E0.04634
G1 F9000 X105.508 Y104.447
G1 F3000 X108.563 Y107.502 E0.17962
G1 F9000 X108.450 Y111.632
G1 F3000 X109.153 Y111.981 E0.04105
G1 X109.860 Y111.981 E0.04103
G1 X110.567 Y111.981 E0.04104
G1 X111.274 Y111.981 E0.04109
G1 X111.981 Y111.981 E0.04109
G1 X112.689 Y111.981 E0.04109
G1 X113.396 Y111.981 E0.04103
G1 X114.103 Y111.981 E0.04104
G1 X114.810 Y111.981 E0.04103
G1 X115.793 Y112.258 E0.04102
G1 X115.521 Y111.632 E0.02837
G1 F9000 X116.450 Y104.783
G1 F3000 X116.336 Y104.315 E0.01627
G1 X117.208 Y104.480 E0.03320
G1 X117.303 Y103.868 E0.01231
G1 X117.822 Y103.679 E0.01185
G1 X117.948 Y103.099 E0.01130
G1 X118.432 Y102.875 E0.01042
G1 X118.440 Y102.530 E0.01435
G1 F9000 X108.441 Y112.330
G1 F3000 X107.738 Y111.981 E0.04105
G1 X107.031 Y111.981 E0.04103
G1 X106.324 Y111.981 E0.04104
G1 X105.617 Y111.981 E0.04103
G1 X104.910 Y111.981 E0.04103
G1 X104.065 Y111.844 E0.04100
G1 X104.199 Y112.330 E0.02096
G1 F9000 X103.755 Y104.815
G1 F3000 X103.120 Y104.181 E0.03731
G1 F9000 X102.147 Y103.207
G1 F3000 X101.454 Y102.515 E0.04072
G1 F2400 E-4.50000
G1 F9000 X125.461 Y103.424
;TYPE:FILL
G1 F2400 E4.50000
G1 F900 X129.962 Y107.926 E0.26467
G1 F9000 X130.156 Y107.288
G1 F900 X126.292 Y103.424 E0.22719
G1 F9000 X127.124 Y103.424
G1 F900 X130.449 Y106.750 E0.19552
G1 F9000 X130.811 Y106.280
G1 F900 X127.955 Y103.424 E0.16792
G1 F9000 X128.787 Y103.424
G1 F900 X131.214 Y105.851 E0.14270
G1 F9000 X131.693 Y105.499
G1 F900 X129.423 Y103.229 E0.13347
G1 F9000 X129.423 Y102.398
G1 F900 X132.225 Y105.199 E0.16472
G1 F9000 X132.830 Y104.972
G1 F900 X129.423 Y101.566 E0.20029
G1 F9000 X129.423 Y100.735
G1 F900 X133.527 Y104.838 E0.24127
G1 F9000 X134.331 Y104.810
G1 F900 X129.423 Y99.903 E0.28854
G1 F9000 X129.423 Y99.072
G1 F900 X135.379 Y105.027 E0.35016
G1 F9000 X137.940 Y107.589
G1 F900 X142.574 Y112.222 E0.27243
G1 F9000 X142.095 Y112.574
G1 F900 X138.179 Y108.658 E0.23025
G1 F9000 X138.162 Y109.473
G1 F900 X141.263 Y112.574 E0.18232
G1 F9000 X140.432 Y112.574
G1 F900 X138.030 Y110.173 E0.14120
G1 F9000 X137.800 Y110.775
G1 F900 X139.600 Y112.574 E0.10581
G1 F9000 X138.768 Y112.574
G1 F900 X137.489 Y111.295 E0.07520
G1 F9000 X137.132 Y111.770
G1 F900 X137.937 Y112.574 E0.04730
G1 F9000 X137.105 Y112.574
G1 F900 X136.721 Y112.190 E0.02258
G1 F9000 X131.284 Y112.574
G1 F900 X125.424 Y106.714 E0.34454
G1 F9000 X125.424 Y107.545
G1 F900 X130.453 Y112.574 E0.29569
G1 F9000 X129.621 Y112.574
G1 F900 X125.424 Y108.377 E0.24676
G1 F9000 X125.424 Y109.209
G1 F900 X128.790 Y112.574 E0.19788
G1 F9000 X127.958 Y112.574
G1 F900 X125.424 Y110.040 E0.14899
G1 F9000 X125.424 Y110.872
G1 F900 X127.127 Y112.574 E0.10010
G1 F9000 X126.295 Y112.574
G1 F900 X125.424 Y111.703 E0.05121
G1 F9000 X130.083 Y110.542
G1 F900 X125.424 Y105.882 E0.27397
G1 F9000 X125.424 Y105.051
G1 F900 X129.812 Y109.439 E0.25799
G1 F9000 X129.805 Y108.600
G1 F900 X125.424 Y104.219 E0.25759
G1 F9000 X128.641 Y102.641
G1 X132.914 Y97.572
G1 F900 X138.573 Y103.232 E0.33276
G1 F9000 X138.766 Y103.424
G1 F900 X142.574 Y107.233 E0.22392
G1 F9000 X142.574 Y108.065
G1 F900 X132.082 Y97.572 E0.61692
G1 F9000 X131.251 Y97.572
G1 F900 X142.574 Y108.896 E0.66578
G1 F9000 X142.574 Y109.728
G1 F900 X130.419 Y97.572 E0.71470
G1 F9000 X129.587 Y97.572
G1 F900 X142.574 Y110.559 E0.76358
G1 F9000 X142.574 Y111.391
G1 F900 X129.423 Y98.240 E0.77323
G1 F9000 X133.745 Y97.572
G1 F900 X138.573 Y102.401 E0.28390
G1 F9000 X138.573 Y101.569
G1 F900 X134.577 Y97.572 E0.23498
G1 F9000 X135.408 Y97.572
G1 F900 X138.573 Y100.737 E0.18609
G1 F9000 X139.597 Y103.424
G1 F900 X142.574 Y106.401 E0.17503
G1 F9000 X142.574 Y105.570
G1 F900 X140.429 Y103.424 E0.12615
G1 F9000 X141.260 Y103.424
G1 F900 X142.574 Y104.738 E0.07726
G1 F9000 X142.574 Y103.907
G1 F900 X142.092 Y103.424 E0.02837
G1 F9000 X139.359 Y102.641
G1 X138.573 Y99.906
G1 F900 X136.240 Y97.572 E0.13720
G1 F9000 X137.071 Y97.572
G1 F900 X138.573 Y99.074 E0.08831
G1 F9000 X138.573 Y98.243
G1 F900 X137.903 Y97.572 E0.03942
G1 F9000 X138.750 Y97.398
;TYPE:WALL-INNER
G1 F900 X138.750 Y103.250 E0.24330
G1 X142.750 Y103.250 E0.16630
G1 X142.750 Y112.750 E0.39496
G1 X134.994 Y112.750 E0.32246
G1 X136.278 Y112.131 E0.05926
G1 X136.552 Y111.913 E0.01456
G1 X137.303 Y110.968 E0.05018
G1 X137.469 Y110.748 E0.01146
G1 X137.780 Y109.864 E0.03896
G1 X137.878 Y109.001 E0.03611
G1 X137.781 Y108.134 E0.03627
G1 X137.463 Y107.235 E0.03965
G1 X136.568 Y106.108 E0.05983
G1 X136.302 Y105.878 E0.01462
G1 X135.219 Y105.358 E0.04995
G1 X135.003 Y105.252 E0.01000
G1 X134.655 Y105.188 E0.01471
G1 X133.465 Y105.189 E0.04948
G1 X133.205 Y105.201 E0.01082
G1 X132.899 Y105.298 E0.01334
G1 X131.818 Y105.820 E0.04991
G1 X131.522 Y106.001 E0.01443
G1 X130.626 Y107.117 E0.05950
G1 X130.453 Y107.422 E0.01458
G1 X130.133 Y108.815 E0.05942
G1 X130.128 Y109.166 E0.01459
G1 X130.450 Y110.565 E0.05969
G1 X130.616 Y110.871 E0.01447
G1 X131.366 Y111.811 E0.05000
G1 X131.600 Y112.065 E0.01436
G1 X132.889 Y112.697 E0.05968
G1 X133.051 Y112.750 E0.00709
G1 X125.250 Y112.750 E0.32433
G1 X125.250 Y103.250 E0.39496
G1 X129.250 Y103.250 E0.16630
G1 X129.250 Y97.398 E0.24330
G1 X138.750 Y97.398 E0.39496
G1 F9000 X139.250 Y96.898
G1 F900 X139.250 Y102.750 E0.24330
G1 X142.750 Y102.750 E0.14551
G1 X142.750 Y89.624 E0.54572
G1 X143.250 Y89.623 E0.02079
G1 X143.250 Y113.250 E0.98229
G1 X124.750 Y113.250 E0.76914
G1 X124.750 Y89.624 E0.98226
G1 X125.250 Y89.623 E0.02079
G1 X125.250 Y102.750 E0.54575
G1 X128.750 Y102.750 E0.14552
G1 X128.750 Y96.898 E0.24330
G1 X139.250 Y96.898 E0.43653
G1 F9000 X134.998 Y105.807
G1 F900 X134.844 Y105.731 E0.00714
G1 X134.609 Y105.688 E0.00994
G1 X133.476 Y105.689 E0.04710
G1 X133.293 Y105.697 E0.00762
G1 X133.084 Y105.763 E0.00911
G1 X132.058 Y106.259 E0.04738
G1 X131.858 Y106.382 E0.00976
G1 X131.041 Y107.399 E0.05424
G1 X130.924 Y107.605 E0.00984
G1 X130.632 Y108.876 E0.05422
G1 X130.629 Y109.113 E0.00986
G1 X130.922 Y110.387 E0.05435
G1 X131.034 Y110.594 E0.00978
G1 X131.746 Y111.485 E0.04742
G1 X131.904 Y111.657 E0.00971
G1 X133.078 Y112.232 E0.05435
G1 X133.283 Y112.300 E0.00898
G1 X133.470 Y112.311 E0.00779
G1 X134.602 Y112.310 E0.04706
G1 X134.835 Y112.271 E0.00982
G1 X136.011 Y111.704 E0.05428
G1 X136.197 Y111.557 E0.00986
G1 X136.907 Y110.662 E0.04749
G1 X137.023 Y110.509 E0.00799
G1 X137.290 Y109.751 E0.03341
G1 X137.375 Y109.001 E0.03138
G1 X137.291 Y108.247 E0.03154
G1 X137.019 Y107.481 E0.03379
G1 X136.206 Y106.455 E0.05443
G1 X136.025 Y106.300 E0.00991
G1 X134.998 Y105.807 E0.04736
G1 F9000 X134.775 Y106.255
;TYPE:WALL-OUTER
G1 F900 X134.685 Y106.210 E0.00418
G1 X134.564 Y106.188 E0.00512
G1 X133.487 Y106.189 E0.04477
G1 X133.381 Y106.194 E0.00441
G1 X133.269 Y106.229 E0.00488
G1 X132.298 Y106.698 E0.04483
G1 X132.193 Y106.763 E0.00514
G1 X131.456 Y107.681 E0.04894
G1 X131.395 Y107.788 E0.00512
G1 X131.131 Y108.936 E0.04898
G1 X131.130 Y109.060 E0.00515
G1 X131.394 Y110.208 E0.04898
G1 X131.453 Y110.317 E0.00515
G1 X132.126 Y111.160 E0.04485
G1 X132.209 Y111.250 E0.00509
G1 X133.267 Y111.768 E0.04897
G1 X133.378 Y111.805 E0.00487
G1 X133.485 Y111.811 E0.00445
G1 X134.561 Y111.810 E0.04474
G1 X134.682 Y111.790 E0.00510
G1 X135.744 Y111.278 E0.04901
G1 X135.841 Y111.201 E0.00515
G1 X136.512 Y110.356 E0.04486
G1 X136.577 Y110.270 E0.00448
G1 X136.799 Y109.638 E0.02785
G1 X136.872 Y109.000 E0.02670
G1 X136.800 Y108.360 E0.02678
G1 X136.576 Y107.726 E0.02795
G1 X135.843 Y106.803 E0.04900
G1 X135.749 Y106.722 E0.00516
G1 X134.775 Y106.255 E0.04491
G1 F9000 X134.923 Y105.937
G1 X139.400 Y102.250
G1 X139.750 Y102.250
G1 F900 X142.250 Y102.250 E0.10394
G1 X142.250 Y89.124 E0.54572
G1 X143.750 Y89.123 E0.06236
G1 X143.750 Y113.750 E1.02387
G1 X124.250 Y113.750 E0.81072
G1 X124.250 Y89.124 E1.02383
G1 X125.750 Y89.123 E0.06236
G1 X125.750 Y102.250 E0.54576
G1 X128.250 Y102.250 E0.10393
G1 X128.250 Y96.398 E0.24330
G1 X139.750 Y96.397 E0.47812
G1 X139.750 Y102.250 E0.24334
G1 F9000 X139.400 Y102.250
G1 X136.084 Y104.617
;TYPE:SKIN
G1 F3000 X138.380 Y106.914 E0.13502
G1 F9000 X137.844 Y107.792
G1 F3000 X138.850 Y108.798 E0.05915
G1 F9000 X138.818 Y109.473
G1 F3000 X138.015 Y108.670 E0.04721
G1 F9000 X138.010 Y109.372
G1 F3000 X138.741 Y110.103 E0.04298
G1 F9000 X138.555 Y110.624
G1 F3000 X137.827 Y110.250 E0.03730
G1 X138.226 Y111.356 E0.03666
G1 X137.349 Y111.186 E0.03454
G1 X137.637 Y112.182 E0.03500
G1 X136.710 Y111.961 E0.03566
G1 X136.616 Y112.574 E0.02522
G1 X136.098 Y112.410 E0.02258
G1 F9000 X131.986 Y112.540
G1 F3000 X131.808 Y112.362 E0.01047
G1 F9000 X131.313 Y112.574
G1 F3000 X129.457 Y110.718 E0.10913
G1 F9000 X129.225 Y109.780
G1 F3000 X130.686 Y111.241 E0.08590
G1 F9000 X130.137 Y109.984
G1 F3000 X129.154 Y109.001 E0.05779
G1 F9000 X129.195 Y108.335
G1 F3000 X129.954 Y109.094 E0.04463
G1 F9000 X130.033 Y108.466
G1 F3000 X129.403 Y107.483 E0.04126
G1 X130.236 Y107.608 E0.04048
G1 X129.843 Y106.509 E0.03465
G1 X130.737 Y106.696 E0.03577
G1 X130.456 Y105.707 E0.03582
G1 X131.391 Y105.935 E0.03417
G1 X131.205 Y105.042 E0.03421
G1 X132.273 Y105.403 E0.03609
G1 X132.121 Y104.544 E0.03757
G1 X133.009 Y105.078 E0.04308
G1 F9000 X133.650 Y105.013
G1 F3000 X132.904 Y104.267 E0.04386
G1 F9000 X133.532 Y104.187
G1 F3000 X134.358 Y105.013 E0.04857
G1 F9000 X135.208 Y105.155
G1 F3000 X134.213 Y104.161 E0.05847
G1 F9000 X135.043 Y104.284
G1 F3000 X138.754 Y107.995 E0.21819
;LAYER:5
G1 F2400 E-4.50000
G1 F1800.000 E-4.0
G1 Z1.200
G1 F9000 X118.574 Y102.204 
G1 F1800.000 E4.0
;TYPE:FILL
G1 F2400 E4.50000
G1 F900 X116.194 Y104.583 E0.13991
G1 F9000 X116.085 Y104.693
G1 F900 X108.246 Y112.532 E0.46090
G1 F9000 X109.077 Y112.532
G1 F900 X116.084 Y105.525 E0.41199
G1 F9000 X116.082 Y106.358
G1 F900 X109.909 Y112.532 E0.36298
G1 F9000 X110.739 Y112.533
G1 F900 X116.081 Y107.191 E0.31408
G1 F9000 X116.080 Y108.023
G1 F900 X111.571 Y112.533 E0.26515
G1 F9000 X112.403 Y112.533
G1 F900 X116.079 Y108.856 E0.21616
G1 F9000 X116.077 Y109.689
G1 F900 X113.234 Y112.533 E0.16719
G1 F9000 X114.066 Y112.533
G1 F900 X116.077 Y110.522 E0.11824
G1 F9000 X116.075 Y111.355
G1 F900 X114.897 Y112.533 E0.06926
G1 F9000 X115.729 Y112.533
G1 F900 X116.074 Y112.188 E0.02028
G1 F9000 X113.079 Y106.035
G1 F900 X106.582 Y112.532 E0.38200
G1 F9000 X105.751 Y112.532
G1 F900 X111.117 Y107.166 E0.31550
G1 F9000 X110.137 Y107.314
G1 F900 X104.919 Y112.532 E0.30680
G1 F9000 X104.088 Y112.532
G1 F900 X109.354 Y107.265 E0.30965
G1 F9000 X108.690 Y107.098
G1 F900 X103.924 Y111.864 E0.28022
G1 F9000 X103.924 Y111.032
G1 F900 X108.082 Y106.874 E0.24448
G1 F9000 X107.572 Y106.553
G1 F900 X103.924 Y110.201 E0.21449
G1 F9000 X103.924 Y109.369
G1 F900 X107.100 Y106.194 E0.18670
G1 F9000 X106.697 Y105.765
G1 F900 X103.924 Y108.538 E0.16304
G1 F9000 X103.924 Y107.706
G1 F900 X106.346 Y105.285 E0.14238
G1 F9000 X106.051 Y104.748
G1 F900 X103.924 Y106.874 E0.12503
G1 F9000 X103.924 Y106.043
G1 F900 X105.851 Y104.116 E0.11330
G1 F9000 X105.695 Y103.441
G1 F900 X103.924 Y105.211 E0.10410
G1 F9000 X103.728 Y104.576
G1 F900 X105.695 Y102.609 E0.11565
G1 F9000 X105.939 Y101.534
G1 F900 X102.954 Y104.519 E0.17551
G1 F9000 X102.597 Y104.044
G1 F900 X108.996 Y97.645 E0.37623
G1 F9000 X108.165 Y97.645
G1 F900 X102.230 Y103.579 E0.34893
G1 F9000 X101.864 Y103.114
G1 F900 X107.333 Y97.645 E0.32156
G1 F9000 X106.502 Y97.645
G1 F900 X101.489 Y102.657 E0.29471
G1 F9000 X101.425 Y101.890
G1 F900 X105.670 Y97.645 E0.24959
G1 F9000 X104.839 Y97.645
G1 F900 X101.425 Y101.058 E0.20070
G1 F9000 X101.425 Y100.227
G1 F900 X104.007 Y97.645 E0.15181
G1 F9000 X103.176 Y97.645
G1 F900 X101.424 Y99.396 E0.10299
G1 F9000 X101.424 Y98.565
G1 F900 X102.344 Y97.645 E0.05409
G1 F9000 X101.512 Y97.645
G1 F900 X101.424 Y97.733 E0.00517
G1 F9000 X108.514 Y98.959
G1 F900 X109.828 Y97.645 E0.07726
G1 F9000 X110.660 Y97.645
G1 F900 X109.585 Y98.719 E0.06318
G1 F9000 X110.433 Y98.703
G1 F900 X111.491 Y97.645 E0.06220
G1 F9000 X112.323 Y97.645
G1 F900 X111.132 Y98.835 E0.07000
G1 F9000 X111.731 Y99.068
G1 F900 X113.154 Y97.645 E0.08367
G1 F9000 X113.986 Y97.645
G1 F900 X112.296 Y99.335 E0.09936
G1 F9000 X112.762 Y99.700
G1 F900 X114.817 Y97.645 E0.12083
G1 F9000 X115.649 Y97.645
G1 F900 X113.199 Y100.095 E0.14405
G1 F9000 X113.551 Y100.574
G1 F900 X116.480 Y97.645 E0.17221
G1 F9000 X117.312 Y97.645
G1 F900 X113.868 Y101.088 E0.20247
G1 F9000 X114.102 Y101.686
G1 F900 X118.144 Y97.645 E0.23762
G1 F9000 X118.574 Y98.046
G1 F900 X114.255 Y102.365 E0.25394
G1 F9000 X114.317 Y103.135
G1 F900 X118.574 Y98.878 E0.25030
G1 F9000 X118.574 Y99.709
G1 F900 X114.185 Y104.098 E0.25805
G1 F9000 X113.153 Y105.962
G1 F900 X118.574 Y100.541 E0.31874
G1 F9000 X118.574 Y101.372
G1 F900 X107.414 Y112.532 E0.65616
G1 F9000 X103.750 Y112.707
;TYPE:WALL-INNER
G1 F900 X103.750 Y104.752 E0.33073
G1 X102.900 Y104.752 E0.03534
G1 X102.696 Y104.454 E0.01502
G1 X101.538 Y102.986 E0.07773
G1 X101.250 Y102.648 E0.01846
G1 X101.250 Y97.470 E0.21528
G1 X118.750 Y97.470 E0.72757
G1 X118.750 Y102.647 E0.21523
G1 X118.462 Y102.985 E0.01846
G1 X117.307 Y104.451 E0.07760
G1 X117.098 Y104.754 E0.01530
G1 X116.261 Y104.758 E0.03480
G1 X116.250 Y107.101 E0.09741
